Assets/HDRP/Frame.CUBE
#Created by: Adobe Photoshop Export Color Lookup Plugin
TITLE "Frame1.psd"
#LUT size
LUT_3D_SIZE 8
#data domain
#LUT data points
DOMAIN_MIN 0.000000 0.000000 0.000000
DOMAIN_MAX 0.903226 0.903226 0.903226
0.000000 0.000000 0.000000
0.001603 0.000000 0.000000
0.015848 0.000000 0.000000
0.112353 0.000000 0.000000
0.427666 0.000000 0.000000
0.938491 0.000000 0.000000
1.000000 0.000000 0.000000
1.000000 0.000000 0.000000
0.000000 0.003315 0.000000
0.001603 0.003315 0.000000
0.015848 0.003315 0.000000
0.112353 0.003315 0.000000
0.427666 0.003315 0.000000
0.938491 0.003315 0.000000
1.000000 0.003315 0.000000
1.000000 0.003315 0.000000
0.000000 0.025198 0.000000
0.001603 0.025198 0.000000
0.015848 0.025198 0.000000
0.112353 0.025198 0.000000
0.427666 0.025198 0.000000
0.938491 0.025198 0.000000
1.000000 0.025198 0.000000
1.000000 0.025198 0.000000
0.000000 0.136695 0.000000
0.001603 0.136695 0.000000
0.015848 0.136695 0.000000
0.112353 0.136695 0.000000
0.427666 0.136695 0.000000
0.938491 0.136695 0.000000
1.000000 0.136695 0.000000
1.000000 0.136695 0.000000
0.000000 0.441818 0.000000
0.001603 0.441818 0.000000
0.015848 0.441818 0.000000
0.112353 0.441818 0.000000
0.427666 0.441818 0.000000
0.938491 0.441818 0.000000
1.000000 0.441818 0.000000
1.000000 0.441818 0.000000
0.000000 0.909468 0.000000
0.001603 0.909468 0.000000
0.015848 0.909468 0.000000
0.112353 0.909468 0.000000
0.427666 0.909468 0.000000
0.938491 0.909468 0.000000
1.000000 0.909468 0.000000
1.000000 0.909468 0.000000
0.000000 1.000000 0.000000
0.001603 1.000000 0.000000
0.015848 1.000000 0.000000
0.112353 1.000000 0.000000
0.427666 1.000000 0.000000
0.938491 1.000000 0.000000
1.000000 1.000000 0.000000
1.000000 1.000000 0.000000
0.000000 1.000000 0.000000
0.001603 1.000000 0.000000
0.015848 1.000000 0.000000
0.112353 1.000000 0.000000
0.427666 1.000000 0.000000
0.938491 1.000000 0.000000
1.000000 1.000000 0.000000
1.000000 1.000000 0.000000
0.000000 0.000000 0.004172
0.001603 0.000000 0.004172
0.015848 0.000000 0.004172
0.112353 0.000000 0.004172
0.427666 0.000000 0.004172
0.938491 0.000000 0.004172
1.000000 0.000000 0.004172
1.000000 0.000000 0.004172
0.000000 0.003315 0.004172
0.001603 0.003315 0.004172
0.015848 0.003315 0.004172
0.112353 0.003315 0.004172
0.427666 0.003315 0.004172
0.938491 0.003315 0.004172
1.000000 0.003315 0.004172
1.000000 0.003315 0.004172
0.000000 0.025198 0.004172
0.001603 0.025198 0.004172
0.015848 0.025198 0.004172
0.112353 0.025198 0.004172
0.427666 0.025198 0.004172
0.938491 0.025198 0.004172
1.000000 0.025198 0.004172
1.000000 0.025198 0.004172
0.000000 0.136695 0.004172
0.001603 0.136695 0.004172
0.015848 0.136695 0.004172
0.112353 0.136695 0.004172
0.427666 0.136695 0.004172
0.938491 0.136695 0.004172
1.000000 0.136695 0.004172
1.000000 0.136695 0.004172
0.000000 0.441818 0.004172
0.001603 0.441818 0.004172
0.015848 0.441818 0.004172
0.112353 0.441818 0.004172
0.427666 0.441818 0.004172
0.938491 0.441818 0.004172
1.000000 0.441818 0.004172
1.000000 0.441818 0.004172
0.000000 0.909468 0.004172
0.001603 0.909468 0.004172
0.015848 0.909468 0.004172
0.112353 0.909468 0.004172
0.427666 0.909468 0.004172
0.938491 0.909468 0.004172
1.000000 0.909468 0.004172
1.000000 0.909468 0.004172
0.000000 1.000000 0.004172
0.001603 1.000000 0.004172
0.015848 1.000000 0.004172
0.112353 1.000000 0.004172
0.427666 1.000000 0.004172
0.938491 1.000000 0.004172
1.000000 1.000000 0.004172
1.000000 1.000000 0.004172
0.000000 1.000000 0.004172
0.001603 1.000000 0.004172
0.015848 1.000000 0.004172
0.112353 1.000000 0.004172
0.427666 1.000000 0.004172
0.938491 1.000000 0.004172
1.000000 1.000000 0.004172
1.000000 1.000000 0.004172
0.000000 0.000000 0.027063
0.001603 0.000000 0.027063
0.015848 0.000000 0.027063
0.112353 0.000000 0.027063
0.427666 0.000000 0.027063
0.938491 0.000000 0.027063
1.000000 0.000000 0.027063
1.000000 0.000000 0.027063
0.000000 0.003315 0.027063
0.001603 0.003315 0.027063
0.015848 0.003315 0.027063
0.112353 0.003315 0.027063
0.427666 0.003315 0.027063
0.938491 0.003315 0.027063
1.000000 0.003315 0.027063
1.000000 0.003315 0.027063
0.000000 0.025198 0.027063
0.001603 0.025198 0.027063
0.015848 0.025198 0.027063
0.112353 0.025198 0.027063
0.427666 0.025198 0.027063
0.938491 0.025198 0.027063
1.000000 0.025198 0.027063
1.000000 0.025198 0.027063
0.000000 0.136695 0.027063
0.001603 0.136695 0.027063
0.015848 0.136695 0.027063
0.112353 0.136695 0.027063
0.427666 0.136695 0.027063
0.938491 0.136695 0.027063
1.000000 0.136695 0.027063
1.000000 0.136695 0.027063
0.000000 0.441818 0.027063
0.001603 0.441818 0.027063
0.015848 0.441818 0.027063
0.112353 0.441818 0.027063
0.427666 0.441818 0.027063
0.938491 0.441818 0.027063
1.000000 0.441818 0.027063
1.000000 0.441818 0.027063
0.000000 0.909468 0.027063
0.001603 0.909468 0.027063
0.015848 0.909468 0.027063
0.112353 0.909468 0.027063
0.427666 0.909468 0.027063
0.938491 0.909468 0.027063
1.000000 0.909468 0.027063
1.000000 0.909468 0.027063
0.000000 1.000000 0.027063
0.001603 1.000000 0.027063
0.015848 1.000000 0.027063
0.112353 1.000000 0.027063
0.427666 1.000000 0.027063
0.938491 1.000000 0.027063
1.000000 1.000000 0.027063
1.000000 1.000000 0.027063
0.000000 1.000000 0.027063
0.001603 1.000000 0.027063
0.015848 1.000000 0.027063
0.112353 1.000000 0.027063
0.427666 1.000000 0.027063
0.938491 1.000000 0.027063
1.000000 1.000000 0.027063
1.000000 1.000000 0.027063
0.000000 0.000000 0.114533
0.001603 0.000000 0.114533
0.015848 0.000000 0.114533
0.112353 0.000000 0.114533
0.427666 0.000000 0.114533
0.938491 0.000000 0.114533
1.000000 0.000000 0.114533
1.000000 0.000000 0.114533
0.000000 0.003315 0.114533
0.001603 0.003315 0.114533
0.015848 0.003315 0.114533
0.112353 0.003315 0.114533
0.427666 0.003315 0.114533
0.938491 0.003315 0.114533
1.000000 0.003315 0.114533
1.000000 0.003315 0.114533
0.000000 0.025198 0.114533
0.001603 0.025198 0.114533
0.015848 0.025198 0.114533
0.112353 0.025198 0.114533
0.427666 0.025198 0.114533
0.938491 0.025198 0.114533
1.000000 0.025198 0.114533
1.000000 0.025198 0.114533
0.000000 0.136695 0.114533
0.001603 0.136695 0.114533
0.015848 0.136695 0.114533
0.112353 0.136695 0.114533
0.427666 0.136695 0.114533
0.938491 0.136695 0.114533
1.000000 0.136695 0.114533
1.000000 0.136695 0.114533
0.000000 0.441818 0.114533
0.001603 0.441818 0.114533
0.015848 0.441818 0.114533
0.112353 0.441818 0.114533
0.427666 0.441818 0.114533
0.938491 0.441818 0.114533
1.000000 0.441818 0.114533
1.000000 0.441818 0.114533
0.000000 0.909468 0.114533
0.001603 0.909468 0.114533
0.015848 0.909468 0.114533
0.112353 0.909468 0.114533
0.427666 0.909468 0.114533
0.938491 0.909468 0.114533
1.000000 0.909468 0.114533
1.000000 0.909468 0.114533
0.000000 1.000000 0.114533
0.001603 1.000000 0.114533
0.015848 1.000000 0.114533
0.112353 1.000000 0.114533
0.427666 1.000000 0.114533
0.938491 1.000000 0.114533
1.000000 1.000000 0.114533
1.000000 1.000000 0.114533
0.000000 1.000000 0.114533
0.001603 1.000000 0.114533
0.015848 1.000000 0.114533
0.112353 1.000000 0.114533
0.427666 1.000000 0.114533
0.938491 1.000000 0.114533
1.000000 1.000000 0.114533
1.000000 1.000000 0.114533
0.000000 0.000000 0.331523
0.001603 0.000000 0.331523
0.015848 0.000000 0.331523
0.112353 0.000000 0.331523
0.427666 0.000000 0.331523
0.938491 0.000000 0.331523
1.000000 0.000000 0.331523
1.000000 0.000000 0.331523
0.000000 0.003315 0.331523
0.001603 0.003315 0.331523
0.015848 0.003315 0.331523
0.112353 0.003315 0.331523
0.427666 0.003315 0.331523
0.938491 0.003315 0.331523
1.000000 0.003315 0.331523
1.000000 0.003315 0.331523
0.000000 0.025198 0.331523
0.001603 0.025198 0.331523
0.015848 0.025198 0.331523
0.112353 0.025198 0.331523
0.427666 0.025198 0.331523
0.938491 0.025198 0.331523
1.000000 0.025198 0.331523
1.000000 0.025198 0.331523
0.000000 0.136695 0.331523
0.001603 0.136695 0.331523
0.015848 0.136695 0.331523
0.112353 0.136695 0.331523
0.427666 0.136695 0.331523
0.938491 0.136695 0.331523
1.000000 0.136695 0.331523
1.000000 0.136695 0.331523
0.000000 0.441818 0.331523
0.001603 0.441818 0.331523
0.015848 0.441818 0.331523
0.112353 0.441818 0.331523
0.427666 0.441818 0.331523
0.938491 0.441818 0.331523
1.000000 0.441818 0.331523
1.000000 0.441818 0.331523
0.000000 0.909468 0.331523
0.001603 0.909468 0.331523
0.015848 0.909468 0.331523
0.112353 0.909468 0.331523
0.427666 0.909468 0.331523
0.938491 0.909468 0.331523
1.000000 0.909468 0.331523
1.000000 0.909468 0.331523
0.000000 1.000000 0.331523
0.001603 1.000000 0.331523
0.015848 1.000000 0.331523
0.112353 1.000000 0.331523
0.427666 1.000000 0.331523
0.938491 1.000000 0.331523
1.000000 1.000000 0.331523
1.000000 1.000000 0.331523
0.000000 1.000000 0.331523
0.001603 1.000000 0.331523
0.015848 1.000000 0.331523
0.112353 1.000000 0.331523
0.427666 1.000000 0.331523
0.938491 1.000000 0.331523
1.000000 1.000000 0.331523
1.000000 1.000000 0.331523
0.000000 0.000000 0.706488
0.001603 0.000000 0.706488
0.015848 0.000000 0.706488
0.112353 0.000000 0.706488
0.427666 0.000000 0.706488
0.938491 0.000000 0.706488
1.000000 0.000000 0.706488
1.000000 0.000000 0.706488
0.000000 0.003315 0.706488
0.001603 0.003315 0.706488
0.015848 0.003315 0.706488
0.112353 0.003315 0.706488
0.427666 0.003315 0.706488
0.938491 0.003315 0.706488
1.000000 0.003315 0.706488
1.000000 0.003315 0.706488
0.000000 0.025198 0.706488
0.001603 0.025198 0.706488
0.015848 0.025198 0.706488
0.112353 0.025198 0.706488
0.427666 0.025198 0.706488
0.938491 0.025198 0.706488
1.000000 0.025198 0.706488
1.000000 0.025198 0.706488
0.000000 0.136695 0.706488
0.001603 0.136695 0.706488
0.015848 0.136695 0.706488
0.112353 0.136695 0.706488
0.427666 0.136695 0.706488
0.938491 0.136695 0.706488
1.000000 0.136695 0.706488
1.000000 0.136695 0.706488
0.000000 0.441818 0.706488
0.001603 0.441818 0.706488
0.015848 0.441818 0.706488
0.112353 0.441818 0.706488
0.427666 0.441818 0.706488
0.938491 0.441818 0.706488
1.000000 0.441818 0.706488
1.000000 0.441818 0.706488
0.000000 0.909468 0.706488
0.001603 0.909468 0.706488
0.015848 0.909468 0.706488
0.112353 0.909468 0.706488
0.427666 0.909468 0.706488
0.938491 0.909468 0.706488
1.000000 0.909468 0.706488
1.000000 0.909468 0.706488
0.000000 1.000000 0.706488
0.001603 1.000000 0.706488
0.015848 1.000000 0.706488
0.112353 1.000000 0.706488
0.427666 1.000000 0.706488
0.938491 1.000000 0.706488
1.000000 1.000000 0.706488
1.000000 1.000000 0.706488
0.000000 1.000000 0.706488
0.001603 1.000000 0.706488
0.015848 1.000000 0.706488
0.112353 1.000000 0.706488
0.427666 1.000000 0.706488
0.938491 1.000000 0.706488
1.000000 1.000000 0.706488
1.000000 1.000000 0.706488
0.000000 0.000000 1.000000
0.001603 0.000000 1.000000
0.015848 0.000000 1.000000
0.112353 0.000000 1.000000
0.427666 0.000000 1.000000
0.938491 0.000000 1.000000
1.000000 0.000000 1.000000
1.000000 0.000000 1.000000
0.000000 0.003315 1.000000
0.001603 0.003315 1.000000
0.015848 0.003315 1.000000
0.112353 0.003315 1.000000
0.427666 0.003315 1.000000
0.938491 0.003315 1.000000
1.000000 0.003315 1.000000
1.000000 0.003315 1.000000
0.000000 0.025198 1.000000
0.001603 0.025198 1.000000
0.015848 0.025198 1.000000
0.112353 0.025198 1.000000
0.427666 0.025198 1.000000
0.938491 0.025198 1.000000
1.000000 0.025198 1.000000
1.000000 0.025198 1.000000
0.000000 0.136695 1.000000
0.001603 0.136695 1.000000
0.015848 0.136695 1.000000
0.112353 0.136695 1.000000
0.427666 0.136695 1.000000
0.938491 0.136695 1.000000
1.000000 0.136695 1.000000
1.000000 0.136695 1.000000
0.000000 0.441818 1.000000
0.001603 0.441818 1.000000
0.015848 0.441818 1.000000
0.112353 0.441818 1.000000
0.427666 0.441818 1.000000
0.938491 0.441818 1.000000
1.000000 0.441818 1.000000
1.000000 0.441818 1.000000
0.000000 0.909468 1.000000
0.001603 0.909468 1.000000
0.015848 0.909468 1.000000
0.112353 0.909468 1.000000
0.427666 0.909468 1.000000
0.938491 0.909468 1.000000
1.000000 0.909468 1.000000
1.000000 0.909468 1.000000
0.000000 1.000000 1.000000
0.001603 1.000000 1.000000
0.015848 1.000000 1.000000
0.112353 1.000000 1.000000
0.427666 1.000000 1.000000
0.938491 1.000000 1.000000
1.000000 1.000000 1.000000
1.000000 1.000000 1.000000
0.000000 1.000000 1.000000
0.001603 1.000000 1.000000
0.015848 1.000000 1.000000
0.112353 1.000000 1.000000
0.427666 1.000000 1.000000
0.938491 1.000000 1.000000
1.000000 1.000000 1.000000
1.000000 1.000000 1.000000
0.000000 0.000000 1.000000
0.001603 0.000000 1.000000
0.015848 0.000000 1.000000
0.112353 0.000000 1.000000
0.427666 0.000000 1.000000
0.938491 0.000000 1.000000
1.000000 0.000000 1.000000
1.000000 0.000000 1.000000
0.000000 0.003315 1.000000
0.001603 0.003315 1.000000
0.015848 0.003315 1.000000
0.112353 0.003315 1.000000
0.427666 0.003315 1.000000
0.938491 0.003315 1.000000
1.000000 0.003315 1.000000
1.000000 0.003315 1.000000
0.000000 0.025198 1.000000
0.001603 0.025198 1.000000
0.015848 0.025198 1.000000
0.112353 0.025198 1.000000
0.427666 0.025198 1.000000
0.938491 0.025198 1.000000
1.000000 0.025198 1.000000
1.000000 0.025198 1.000000
0.000000 0.136695 1.000000
0.001603 0.136695 1.000000
0.015848 0.136695 1.000000
0.112353 0.136695 1.000000
0.427666 0.136695 1.000000
0.938491 0.136695 1.000000
1.000000 0.136695 1.000000
1.000000 0.136695 1.000000
0.000000 0.441818 1.000000
0.001603 0.441818 1.000000
0.015848 0.441818 1.000000
0.112353 0.441818 1.000000
0.427666 0.441818 1.000000
0.938491 0.441818 1.000000
1.000000 0.441818 1.000000
1.000000 0.441818 1.000000
0.000000 0.909468 1.000000
0.001603 0.909468 1.000000
0.015848 0.909468 1.000000
0.112353 0.909468 1.000000
0.427666 0.909468 1.000000
0.938491 0.909468 1.000000
1.000000 0.909468 1.000000
1.000000 0.909468 1.000000
0.000000 1.000000 1.000000
0.001603 1.000000 1.000000
0.015848 1.000000 1.000000
0.112353 1.000000 1.000000
0.427666 1.000000 1.000000
0.938491 1.000000 1.000000
1.000000 1.000000 1.000000
1.000000 1.000000 1.000000
0.000000 1.000000 1.000000
0.001603 1.000000 1.000000
0.015848 1.000000 1.000000
0.112353 1.000000 1.000000
0.427666 1.000000 1.000000
0.938491 1.000000 1.000000
1.000000 1.000000 1.000000
1.000000 1.000000 1.000000
