Assets/HDRP/Frame.CUBE
#Created by: Adobe Photoshop Export Color Lookup Plugin
TITLE "Frame1.psd"
#LUT size
LUT_3D_SIZE 32
#data domain
DOMAIN_MIN 0.0 0.0 0.0
DOMAIN_MAX 1.0 1.0 1.0
#LUT data points
0.000000 0.000000 0.000000
0.000071 0.000000 0.000000
0.000312 0.000000 0.000000
0.000785 0.000000 0.000000
0.001603 0.000000 0.000000
0.002972 0.000000 0.000000
0.005274 0.000000 0.000000
0.009193 0.000000 0.000000
0.015848 0.000000 0.000000
0.027047 0.000000 0.000000
0.045120 0.000000 0.000000
0.072662 0.000000 0.000000
0.112353 0.000000 0.000000
0.166585 0.000000 0.000000
0.237044 0.000000 0.000000
0.324327 0.000000 0.000000
0.427666 0.000000 0.000000
0.544829 0.000000 0.000000
0.672220 0.000000 0.000000
0.805188 0.000000 0.000000
0.938491 0.000000 0.000000
1.000000 0.000000 0.000000
1.000000 0.000000 0.000000
1.000000 0.000000 0.000000
1.000000 0.000000 0.000000
1.000000 0.000000 0.000000
1.000000 0.000000 0.000000
1.000000 0.000000 0.000000
1.000000 0.000000 0.000000
1.000000 0.000000 0.000000
1.000000 0.000000 0.000000
1.000000 0.000000 0.000000
0.000000 0.000192 0.000000
0.000071 0.000192 0.000000
0.000312 0.000192 0.000000
0.000785 0.000192 0.000000
0.001603 0.000192 0.000000
0.002972 0.000192 0.000000
0.005274 0.000192 0.000000
0.009193 0.000192 0.000000
0.015848 0.000192 0.000000
0.027047 0.000192 0.000000
0.045120 0.000192 0.000000
0.072662 0.000192 0.000000
0.112353 0.000192 0.000000
0.166585 0.000192 0.000000
0.237044 0.000192 0.000000
0.324327 0.000192 0.000000
0.427666 0.000192 0.000000
0.544829 0.000192 0.000000
0.672220 0.000192 0.000000
0.805188 0.000192 0.000000
0.938491 0.000192 0.000000
1.000000 0.000192 0.000000
1.000000 0.000192 0.000000
1.000000 0.000192 0.000000
1.000000 0.000192 0.000000
1.000000 0.000192 0.000000
1.000000 0.000192 0.000000
1.000000 0.000192 0.000000
1.000000 0.000192 0.000000
1.000000 0.000192 0.000000
1.000000 0.000192 0.000000
1.000000 0.000192 0.000000
0.000000 0.000748 0.000000
0.000071 0.000748 0.000000
0.000312 0.000748 0.000000
0.000785 0.000748 0.000000
0.001603 0.000748 0.000000
0.002972 0.000748 0.000000
0.005274 0.000748 0.000000
0.009193 0.000748 0.000000
0.015848 0.000748 0.000000
0.027047 0.000748 0.000000
0.045120 0.000748 0.000000
0.072662 0.000748 0.000000
0.112353 0.000748 0.000000
0.166585 0.000748 0.000000
0.237044 0.000748 0.000000
0.324327 0.000748 0.000000
0.427666 0.000748 0.000000
0.544829 0.000748 0.000000
0.672220 0.000748 0.000000
0.805188 0.000748 0.000000
0.938491 0.000748 0.000000
1.000000 0.000748 0.000000
1.000000 0.000748 0.000000
1.000000 0.000748 0.000000
1.000000 0.000748 0.000000
1.000000 0.000748 0.000000
1.000000 0.000748 0.000000
1.000000 0.000748 0.000000
1.000000 0.000748 0.000000
1.000000 0.000748 0.000000
1.000000 0.000748 0.000000
1.000000 0.000748 0.000000
0.000000 0.001736 0.000000
0.000071 0.001736 0.000000
0.000312 0.001736 0.000000
0.000785 0.001736 0.000000
0.001603 0.001736 0.000000
0.002972 0.001736 0.000000
0.005274 0.001736 0.000000
0.009193 0.001736 0.000000
0.015848 0.001736 0.000000
0.027047 0.001736 0.000000
0.045120 0.001736 0.000000
0.072662 0.001736 0.000000
0.112353 0.001736 0.000000
0.166585 0.001736 0.000000
0.237044 0.001736 0.000000
0.324327 0.001736 0.000000
0.427666 0.001736 0.000000
0.544829 0.001736 0.000000
0.672220 0.001736 0.000000
0.805188 0.001736 0.000000
0.938491 0.001736 0.000000
1.000000 0.001736 0.000000
1.000000 0.001736 0.000000
1.000000 0.001736 0.000000
1.000000 0.001736 0.000000
1.000000 0.001736 0.000000
1.000000 0.001736 0.000000
1.000000 0.001736 0.000000
1.000000 0.001736 0.000000
1.000000 0.001736 0.000000
1.000000 0.001736 0.000000
1.000000 0.001736 0.000000
0.000000 0.003315 0.000000
0.000071 0.003315 0.000000
0.000312 0.003315 0.000000
0.000785 0.003315 0.000000
0.001603 0.003315 0.000000
0.002972 0.003315 0.000000
0.005274 0.003315 0.000000
0.009193 0.003315 0.000000
0.015848 0.003315 0.000000
0.027047 0.003315 0.000000
0.045120 0.003315 0.000000
0.072662 0.003315 0.000000
0.112353 0.003315 0.000000
0.166585 0.003315 0.000000
0.237044 0.003315 0.000000
0.324327 0.003315 0.000000
0.427666 0.003315 0.000000
0.544829 0.003315 0.000000
0.672220 0.003315 0.000000
0.805188 0.003315 0.000000
0.938491 0.003315 0.000000
1.000000 0.003315 0.000000
1.000000 0.003315 0.000000
1.000000 0.003315 0.000000
1.000000 0.003315 0.000000
1.000000 0.003315 0.000000
1.000000 0.003315 0.000000
1.000000 0.003315 0.000000
1.000000 0.003315 0.000000
1.000000 0.003315 0.000000
1.000000 0.003315 0.000000
1.000000 0.003315 0.000000
0.000000 0.005771 0.000000
0.000071 0.005771 0.000000
0.000312 0.005771 0.000000
0.000785 0.005771 0.000000
0.001603 0.005771 0.000000
0.002972 0.005771 0.000000
0.005274 0.005771 0.000000
0.009193 0.005771 0.000000
0.015848 0.005771 0.000000
0.027047 0.005771 0.000000
0.045120 0.005771 0.000000
0.072662 0.005771 0.000000
0.112353 0.005771 0.000000
0.166585 0.005771 0.000000
0.237044 0.005771 0.000000
0.324327 0.005771 0.000000
0.427666 0.005771 0.000000
0.544829 0.005771 0.000000
0.672220 0.005771 0.000000
0.805188 0.005771 0.000000
0.938491 0.005771 0.000000
1.000000 0.005771 0.000000
1.000000 0.005771 0.000000
1.000000 0.005771 0.000000
1.000000 0.005771 0.000000
1.000000 0.005771 0.000000
1.000000 0.005771 0.000000
1.000000 0.005771 0.000000
1.000000 0.005771 0.000000
1.000000 0.005771 0.000000
1.000000 0.005771 0.000000
1.000000 0.005771 0.000000
0.000000 0.009608 0.000000
0.000071 0.009608 0.000000
0.000312 0.009608 0.000000
0.000785 0.009608 0.000000
0.001603 0.009608 0.000000
0.002972 0.009608 0.000000
0.005274 0.009608 0.000000
0.009193 0.009608 0.000000
0.015848 0.009608 0.000000
0.027047 0.009608 0.000000
0.045120 0.009608 0.000000
0.072662 0.009608 0.000000
0.112353 0.009608 0.000000
0.166585 0.009608 0.000000
0.237044 0.009608 0.000000
0.324327 0.009608 0.000000
0.427666 0.009608 0.000000
0.544829 0.009608 0.000000
0.672220 0.009608 0.000000
0.805188 0.009608 0.000000
0.938491 0.009608 0.000000
1.000000 0.009608 0.000000
1.000000 0.009608 0.000000
1.000000 0.009608 0.000000
1.000000 0.009608 0.000000
1.000000 0.009608 0.000000
1.000000 0.009608 0.000000
1.000000 0.009608 0.000000
1.000000 0.009608 0.000000
1.000000 0.009608 0.000000
1.000000 0.009608 0.000000
1.000000 0.009608 0.000000
0.000000 0.015662 0.000000
0.000071 0.015662 0.000000
0.000312 0.015662 0.000000
0.000785 0.015662 0.000000
0.001603 0.015662 0.000000
0.002972 0.015662 0.000000
0.005274 0.015662 0.000000
0.009193 0.015662 0.000000
0.015848 0.015662 0.000000
0.027047 0.015662 0.000000
0.045120 0.015662 0.000000
0.072662 0.015662 0.000000
0.112353 0.015662 0.000000
0.166585 0.015662 0.000000
0.237044 0.015662 0.000000
0.324327 0.015662 0.000000
0.427666 0.015662 0.000000
0.544829 0.015662 0.000000
0.672220 0.015662 0.000000
0.805188 0.015662 0.000000
0.938491 0.015662 0.000000
1.000000 0.015662 0.000000
1.000000 0.015662 0.000000
1.000000 0.015662 0.000000
1.000000 0.015662 0.000000
1.000000 0.015662 0.000000
1.000000 0.015662 0.000000
1.000000 0.015662 0.000000
1.000000 0.015662 0.000000
1.000000 0.015662 0.000000
1.000000 0.015662 0.000000
1.000000 0.015662 0.000000
0.000000 0.025198 0.000000
0.000071 0.025198 0.000000
0.000312 0.025198 0.000000
0.000785 0.025198 0.000000
0.001603 0.025198 0.000000
0.002972 0.025198 0.000000
0.005274 0.025198 0.000000
0.009193 0.025198 0.000000
0.015848 0.025198 0.000000
0.027047 0.025198 0.000000
0.045120 0.025198 0.000000
0.072662 0.025198 0.000000
0.112353 0.025198 0.000000
0.166585 0.025198 0.000000
0.237044 0.025198 0.000000
0.324327 0.025198 0.000000
0.427666 0.025198 0.000000
0.544829 0.025198 0.000000
0.672220 0.025198 0.000000
0.805188 0.025198 0.000000
0.938491 0.025198 0.000000
1.000000 0.025198 0.000000
1.000000 0.025198 0.000000
1.000000 0.025198 0.000000
1.000000 0.025198 0.000000
1.000000 0.025198 0.000000
1.000000 0.025198 0.000000
1.000000 0.025198 0.000000
1.000000 0.025198 0.000000
1.000000 0.025198 0.000000
1.000000 0.025198 0.000000
1.000000 0.025198 0.000000
0.000000 0.040049 0.000000
0.000071 0.040049 0.000000
0.000312 0.040049 0.000000
0.000785 0.040049 0.000000
0.001603 0.040049 0.000000
0.002972 0.040049 0.000000
0.005274 0.040049 0.000000
0.009193 0.040049 0.000000
0.015848 0.040049 0.000000
0.027047 0.040049 0.000000
0.045120 0.040049 0.000000
0.072662 0.040049 0.000000
0.112353 0.040049 0.000000
0.166585 0.040049 0.000000
0.237044 0.040049 0.000000
0.324327 0.040049 0.000000
0.427666 0.040049 0.000000
0.544829 0.040049 0.000000
0.672220 0.040049 0.000000
0.805188 0.040049 0.000000
0.938491 0.040049 0.000000
1.000000 0.040049 0.000000
1.000000 0.040049 0.000000
1.000000 0.040049 0.000000
1.000000 0.040049 0.000000
1.000000 0.040049 0.000000
1.000000 0.040049 0.000000
1.000000 0.040049 0.000000
1.000000 0.040049 0.000000
1.000000 0.040049 0.000000
1.000000 0.040049 0.000000
1.000000 0.040049 0.000000
0.000000 0.062240 0.000000
0.000071 0.062240 0.000000
0.000312 0.062240 0.000000
0.000785 0.062240 0.000000
0.001603 0.062240 0.000000
0.002972 0.062240 0.000000
0.005274 0.062240 0.000000
0.009193 0.062240 0.000000
0.015848 0.062240 0.000000
0.027047 0.062240 0.000000
0.045120 0.062240 0.000000
0.072662 0.062240 0.000000
0.112353 0.062240 0.000000
0.166585 0.062240 0.000000
0.237044 0.062240 0.000000
0.324327 0.062240 0.000000
0.427666 0.062240 0.000000
0.544829 0.062240 0.000000
0.672220 0.062240 0.000000
0.805188 0.062240 0.000000
0.938491 0.062240 0.000000
1.000000 0.062240 0.000000
1.000000 0.062240 0.000000
1.000000 0.062240 0.000000
1.000000 0.062240 0.000000
1.000000 0.062240 0.000000
1.000000 0.062240 0.000000
1.000000 0.062240 0.000000
1.000000 0.062240 0.000000
1.000000 0.062240 0.000000
1.000000 0.062240 0.000000
1.000000 0.062240 0.000000
0.000000 0.093815 0.000000
0.000071 0.093815 0.000000
0.000312 0.093815 0.000000
0.000785 0.093815 0.000000
0.001603 0.093815 0.000000
0.002972 0.093815 0.000000
0.005274 0.093815 0.000000
0.009193 0.093815 0.000000
0.015848 0.093815 0.000000
0.027047 0.093815 0.000000
0.045120 0.093815 0.000000
0.072662 0.093815 0.000000
0.112353 0.093815 0.000000
0.166585 0.093815 0.000000
0.237044 0.093815 0.000000
0.324327 0.093815 0.000000
0.427666 0.093815 0.000000
0.544829 0.093815 0.000000
0.672220 0.093815 0.000000
0.805188 0.093815 0.000000
0.938491 0.093815 0.000000
1.000000 0.093815 0.000000
1.000000 0.093815 0.000000
1.000000 0.093815 0.000000
1.000000 0.093815 0.000000
1.000000 0.093815 0.000000
1.000000 0.093815 0.000000
1.000000 0.093815 0.000000
1.000000 0.093815 0.000000
1.000000 0.093815 0.000000
1.000000 0.093815 0.000000
1.000000 0.093815 0.000000
0.000000 0.136695 0.000000
0.000071 0.136695 0.000000
0.000312 0.136695 0.000000
0.000785 0.136695 0.000000
0.001603 0.136695 0.000000
0.002972 0.136695 0.000000
0.005274 0.136695 0.000000
0.009193 0.136695 0.000000
0.015848 0.136695 0.000000
0.027047 0.136695 0.000000
0.045120 0.136695 0.000000
0.072662 0.136695 0.000000
0.112353 0.136695 0.000000
0.166585 0.136695 0.000000
0.237044 0.136695 0.000000
0.324327 0.136695 0.000000
0.427666 0.136695 0.000000
0.544829 0.136695 0.000000
0.672220 0.136695 0.000000
0.805188 0.136695 0.000000
0.938491 0.136695 0.000000
1.000000 0.136695 0.000000
1.000000 0.136695 0.000000
1.000000 0.136695 0.000000
1.000000 0.136695 0.000000
1.000000 0.136695 0.000000
1.000000 0.136695 0.000000
1.000000 0.136695 0.000000
1.000000 0.136695 0.000000
1.000000 0.136695 0.000000
1.000000 0.136695 0.000000
1.000000 0.136695 0.000000
0.000000 0.192432 0.000000
0.000071 0.192432 0.000000
0.000312 0.192432 0.000000
0.000785 0.192432 0.000000
0.001603 0.192432 0.000000
0.002972 0.192432 0.000000
0.005274 0.192432 0.000000
0.009193 0.192432 0.000000
0.015848 0.192432 0.000000
0.027047 0.192432 0.000000
0.045120 0.192432 0.000000
0.072662 0.192432 0.000000
0.112353 0.192432 0.000000
0.166585 0.192432 0.000000
0.237044 0.192432 0.000000
0.324327 0.192432 0.000000
0.427666 0.192432 0.000000
0.544829 0.192432 0.000000
0.672220 0.192432 0.000000
0.805188 0.192432 0.000000
0.938491 0.192432 0.000000
1.000000 0.192432 0.000000
1.000000 0.192432 0.000000
1.000000 0.192432 0.000000
1.000000 0.192432 0.000000
1.000000 0.192432 0.000000
1.000000 0.192432 0.000000
1.000000 0.192432 0.000000
1.000000 0.192432 0.000000
1.000000 0.192432 0.000000
1.000000 0.192432 0.000000
1.000000 0.192432 0.000000
0.000000 0.261953 0.000000
0.000071 0.261953 0.000000
0.000312 0.261953 0.000000
0.000785 0.261953 0.000000
0.001603 0.261953 0.000000
0.002972 0.261953 0.000000
0.005274 0.261953 0.000000
0.009193 0.261953 0.000000
0.015848 0.261953 0.000000
0.027047 0.261953 0.000000
0.045120 0.261953 0.000000
0.072662 0.261953 0.000000
0.112353 0.261953 0.000000
0.166585 0.261953 0.000000
0.237044 0.261953 0.000000
0.324327 0.261953 0.000000
0.427666 0.261953 0.000000
0.544829 0.261953 0.000000
0.672220 0.261953 0.000000
0.805188 0.261953 0.000000
0.938491 0.261953 0.000000
1.000000 0.261953 0.000000
1.000000 0.261953 0.000000
1.000000 0.261953 0.000000
1.000000 0.261953 0.000000
1.000000 0.261953 0.000000
1.000000 0.261953 0.000000
1.000000 0.261953 0.000000
1.000000 0.261953 0.000000
1.000000 0.261953 0.000000
1.000000 0.261953 0.000000
1.000000 0.261953 0.000000
0.000000 0.345363 0.000000
0.000071 0.345363 0.000000
0.000312 0.345363 0.000000
0.000785 0.345363 0.000000
0.001603 0.345363 0.000000
0.002972 0.345363 0.000000
0.005274 0.345363 0.000000
0.009193 0.345363 0.000000
0.015848 0.345363 0.000000
0.027047 0.345363 0.000000
0.045120 0.345363 0.000000
0.072662 0.345363 0.000000
0.112353 0.345363 0.000000
0.166585 0.345363 0.000000
0.237044 0.345363 0.000000
0.324327 0.345363 0.000000
0.427666 0.345363 0.000000
0.544829 0.345363 0.000000
0.672220 0.345363 0.000000
0.805188 0.345363 0.000000
0.938491 0.345363 0.000000
1.000000 0.345363 0.000000
1.000000 0.345363 0.000000
1.000000 0.345363 0.000000
1.000000 0.345363 0.000000
1.000000 0.345363 0.000000
1.000000 0.345363 0.000000
1.000000 0.345363 0.000000
1.000000 0.345363 0.000000
1.000000 0.345363 0.000000
1.000000 0.345363 0.000000
1.000000 0.345363 0.000000
0.000000 0.441818 0.000000
0.000071 0.441818 0.000000
0.000312 0.441818 0.000000
0.000785 0.441818 0.000000
0.001603 0.441818 0.000000
0.002972 0.441818 0.000000
0.005274 0.441818 0.000000
0.009193 0.441818 0.000000
0.015848 0.441818 0.000000
0.027047 0.441818 0.000000
0.045120 0.441818 0.000000
0.072662 0.441818 0.000000
0.112353 0.441818 0.000000
0.166585 0.441818 0.000000
0.237044 0.441818 0.000000
0.324327 0.441818 0.000000
0.427666 0.441818 0.000000
0.544829 0.441818 0.000000
0.672220 0.441818 0.000000
0.805188 0.441818 0.000000
0.938491 0.441818 0.000000
1.000000 0.441818 0.000000
1.000000 0.441818 0.000000
1.000000 0.441818 0.000000
1.000000 0.441818 0.000000
1.000000 0.441818 0.000000
1.000000 0.441818 0.000000
1.000000 0.441818 0.000000
1.000000 0.441818 0.000000
1.000000 0.441818 0.000000
1.000000 0.441818 0.000000
1.000000 0.441818 0.000000
0.000000 0.549494 0.000000
0.000071 0.549494 0.000000
0.000312 0.549494 0.000000
0.000785 0.549494 0.000000
0.001603 0.549494 0.000000
0.002972 0.549494 0.000000
0.005274 0.549494 0.000000
0.009193 0.549494 0.000000
0.015848 0.549494 0.000000
0.027047 0.549494 0.000000
0.045120 0.549494 0.000000
0.072662 0.549494 0.000000
0.112353 0.549494 0.000000
0.166585 0.549494 0.000000
0.237044 0.549494 0.000000
0.324327 0.549494 0.000000
0.427666 0.549494 0.000000
0.544829 0.549494 0.000000
0.672220 0.549494 0.000000
0.805188 0.549494 0.000000
0.938491 0.549494 0.000000
1.000000 0.549494 0.000000
1.000000 0.549494 0.000000
1.000000 0.549494 0.000000
1.000000 0.549494 0.000000
1.000000 0.549494 0.000000
1.000000 0.549494 0.000000
1.000000 0.549494 0.000000
1.000000 0.549494 0.000000
1.000000 0.549494 0.000000
1.000000 0.549494 0.000000
1.000000 0.549494 0.000000
0.000000 0.665677 0.000000
0.000071 0.665677 0.000000
0.000312 0.665677 0.000000
0.000785 0.665677 0.000000
0.001603 0.665677 0.000000
0.002972 0.665677 0.000000
0.005274 0.665677 0.000000
0.009193 0.665677 0.000000
0.015848 0.665677 0.000000
0.027047 0.665677 0.000000
0.045120 0.665677 0.000000
0.072662 0.665677 0.000000
0.112353 0.665677 0.000000
0.166585 0.665677 0.000000
0.237044 0.665677 0.000000
0.324327 0.665677 0.000000
0.427666 0.665677 0.000000
0.544829 0.665677 0.000000
0.672220 0.665677 0.000000
0.805188 0.665677 0.000000
0.938491 0.665677 0.000000
1.000000 0.665677 0.000000
1.000000 0.665677 0.000000
1.000000 0.665677 0.000000
1.000000 0.665677 0.000000
1.000000 0.665677 0.000000
1.000000 0.665677 0.000000
1.000000 0.665677 0.000000
1.000000 0.665677 0.000000
1.000000 0.665677 0.000000
1.000000 0.665677 0.000000
1.000000 0.665677 0.000000
0.000000 0.786951 0.000000
0.000071 0.786951 0.000000
0.000312 0.786951 0.000000
0.000785 0.786951 0.000000
0.001603 0.786951 0.000000
0.002972 0.786951 0.000000
0.005274 0.786951 0.000000
0.009193 0.786951 0.000000
0.015848 0.786951 0.000000
0.027047 0.786951 0.000000
0.045120 0.786951 0.000000
0.072662 0.786951 0.000000
0.112353 0.786951 0.000000
0.166585 0.786951 0.000000
0.237044 0.786951 0.000000
0.324327 0.786951 0.000000
0.427666 0.786951 0.000000
0.544829 0.786951 0.000000
0.672220 0.786951 0.000000
0.805188 0.786951 0.000000
0.938491 0.786951 0.000000
1.000000 0.786951 0.000000
1.000000 0.786951 0.000000
1.000000 0.786951 0.000000
1.000000 0.786951 0.000000
1.000000 0.786951 0.000000
1.000000 0.786951 0.000000
1.000000 0.786951 0.000000
1.000000 0.786951 0.000000
1.000000 0.786951 0.000000
1.000000 0.786951 0.000000
1.000000 0.786951 0.000000
0.000000 0.909468 0.000000
0.000071 0.909468 0.000000
0.000312 0.909468 0.000000
0.000785 0.909468 0.000000
0.001603 0.909468 0.000000
0.002972 0.909468 0.000000
0.005274 0.909468 0.000000
0.009193 0.909468 0.000000
0.015848 0.909468 0.000000
0.027047 0.909468 0.000000
0.045120 0.909468 0.000000
0.072662 0.909468 0.000000
0.112353 0.909468 0.000000
0.166585 0.909468 0.000000
0.237044 0.909468 0.000000
0.324327 0.909468 0.000000
0.427666 0.909468 0.000000
0.544829 0.909468 0.000000
0.672220 0.909468 0.000000
0.805188 0.909468 0.000000
0.938491 0.909468 0.000000
1.000000 0.909468 0.000000
1.000000 0.909468 0.000000
1.000000 0.909468 0.000000
1.000000 0.909468 0.000000
1.000000 0.909468 0.000000
1.000000 0.909468 0.000000
1.000000 0.909468 0.000000
1.000000 0.909468 0.000000
1.000000 0.909468 0.000000
1.000000 0.909468 0.000000
1.000000 0.909468 0.000000
0.000000 1.000000 0.000000
0.000071 1.000000 0.000000
0.000312 1.000000 0.000000
0.000785 1.000000 0.000000
0.001603 1.000000 0.000000
0.002972 1.000000 0.000000
0.005274 1.000000 0.000000
0.009193 1.000000 0.000000
0.015848 1.000000 0.000000
0.027047 1.000000 0.000000
0.045120 1.000000 0.000000
0.072662 1.000000 0.000000
0.112353 1.000000 0.000000
0.166585 1.000000 0.000000
0.237044 1.000000 0.000000
0.324327 1.000000 0.000000
0.427666 1.000000 0.000000
0.544829 1.000000 0.000000
0.672220 1.000000 0.000000
0.805188 1.000000 0.000000
0.938491 1.000000 0.000000
1.000000 1.000000 0.000000
1.000000 1.000000 0.000000
1.000000 1.000000 0.000000
1.000000 1.000000 0.000000
1.000000 1.000000 0.000000
1.000000 1.000000 0.000000
1.000000 1.000000 0.000000
1.000000 1.000000 0.000000
1.000000 1.000000 0.000000
1.000000 1.000000 0.000000
1.000000 1.000000 0.000000
0.000000 1.000000 0.000000
0.000071 1.000000 0.000000
0.000312 1.000000 0.000000
0.000785 1.000000 0.000000
0.001603 1.000000 0.000000
0.002972 1.000000 0.000000
0.005274 1.000000 0.000000
0.009193 1.000000 0.000000
0.015848 1.000000 0.000000
0.027047 1.000000 0.000000
0.045120 1.000000 0.000000
0.072662 1.000000 0.000000
0.112353 1.000000 0.000000
0.166585 1.000000 0.000000
0.237044 1.000000 0.000000
0.324327 1.000000 0.000000
0.427666 1.000000 0.000000
0.544829 1.000000 0.000000
0.672220 1.000000 0.000000
0.805188 1.000000 0.000000
0.938491 1.000000 0.000000
1.000000 1.000000 0.000000
1.000000 1.000000 0.000000
1.000000 1.000000 0.000000
1.000000 1.000000 0.000000
1.000000 1.000000 0.000000
1.000000 1.000000 0.000000
1.000000 1.000000 0.000000
1.000000 1.000000 0.000000
1.000000 1.000000 0.000000
1.000000 1.000000 0.000000
1.000000 1.000000 0.000000
0.000000 1.000000 0.000000
0.000071 1.000000 0.000000
0.000312 1.000000 0.000000
0.000785 1.000000 0.000000
0.001603 1.000000 0.000000
0.002972 1.000000 0.000000
0.005274 1.000000 0.000000
0.009193 1.000000 0.000000
0.015848 1.000000 0.000000
0.027047 1.000000 0.000000
0.045120 1.000000 0.000000
0.072662 1.000000 0.000000
0.112353 1.000000 0.000000
0.166585 1.000000 0.000000
0.237044 1.000000 0.000000
0.324327 1.000000 0.000000
0.427666 1.000000 0.000000
0.544829 1.000000 0.000000
0.672220 1.000000 0.000000
0.805188 1.000000 0.000000
0.938491 1.000000 0.000000
1.000000 1.000000 0.000000
1.000000 1.000000 0.000000
1.000000 1.000000 0.000000
1.000000 1.000000 0.000000
1.000000 1.000000 0.000000
1.000000 1.000000 0.000000
1.000000 1.000000 0.000000
1.000000 1.000000 0.000000
1.000000 1.000000 0.000000
1.000000 1.000000 0.000000
1.000000 1.000000 0.000000
0.000000 1.000000 0.000000
0.000071 1.000000 0.000000
0.000312 1.000000 0.000000
0.000785 1.000000 0.000000
0.001603 1.000000 0.000000
0.002972 1.000000 0.000000
0.005274 1.000000 0.000000
0.009193 1.000000 0.000000
0.015848 1.000000 0.000000
0.027047 1.000000 0.000000
0.045120 1.000000 0.000000
0.072662 1.000000 0.000000
0.112353 1.000000 0.000000
0.166585 1.000000 0.000000
0.237044 1.000000 0.000000
0.324327 1.000000 0.000000
0.427666 1.000000 0.000000
0.544829 1.000000 0.000000
0.672220 1.000000 0.000000
0.805188 1.000000 0.000000
0.938491 1.000000 0.000000
1.000000 1.000000 0.000000
1.000000 1.000000 0.000000
1.000000 1.000000 0.000000
1.000000 1.000000 0.000000
1.000000 1.000000 0.000000
1.000000 1.000000 0.000000
1.000000 1.000000 0.000000
1.000000 1.000000 0.000000
1.000000 1.000000 0.000000
1.000000 1.000000 0.000000
1.000000 1.000000 0.000000
0.000000 1.000000 0.000000
0.000071 1.000000 0.000000
0.000312 1.000000 0.000000
0.000785 1.000000 0.000000
0.001603 1.000000 0.000000
0.002972 1.000000 0.000000
0.005274 1.000000 0.000000
0.009193 1.000000 0.000000
0.015848 1.000000 0.000000
0.027047 1.000000 0.000000
0.045120 1.000000 0.000000
0.072662 1.000000 0.000000
0.112353 1.000000 0.000000
0.166585 1.000000 0.000000
0.237044 1.000000 0.000000
0.324327 1.000000 0.000000
0.427666 1.000000 0.000000
0.544829 1.000000 0.000000
0.672220 1.000000 0.000000
0.805188 1.000000 0.000000
0.938491 1.000000 0.000000
1.000000 1.000000 0.000000
1.000000 1.000000 0.000000
1.000000 1.000000 0.000000
1.000000 1.000000 0.000000
1.000000 1.000000 0.000000
1.000000 1.000000 0.000000
1.000000 1.000000 0.000000
1.000000 1.000000 0.000000
1.000000 1.000000 0.000000
1.000000 1.000000 0.000000
1.000000 1.000000 0.000000
0.000000 1.000000 0.000000
0.000071 1.000000 0.000000
0.000312 1.000000 0.000000
0.000785 1.000000 0.000000
0.001603 1.000000 0.000000
0.002972 1.000000 0.000000
0.005274 1.000000 0.000000
0.009193 1.000000 0.000000
0.015848 1.000000 0.000000
0.027047 1.000000 0.000000
0.045120 1.000000 0.000000
0.072662 1.000000 0.000000
0.112353 1.000000 0.000000
0.166585 1.000000 0.000000
0.237044 1.000000 0.000000
0.324327 1.000000 0.000000
0.427666 1.000000 0.000000
0.544829 1.000000 0.000000
0.672220 1.000000 0.000000
0.805188 1.000000 0.000000
0.938491 1.000000 0.000000
1.000000 1.000000 0.000000
1.000000 1.000000 0.000000
1.000000 1.000000 0.000000
1.000000 1.000000 0.000000
1.000000 1.000000 0.000000
1.000000 1.000000 0.000000
1.000000 1.000000 0.000000
1.000000 1.000000 0.000000
1.000000 1.000000 0.000000
1.000000 1.000000 0.000000
1.000000 1.000000 0.000000
0.000000 1.000000 0.000000
0.000071 1.000000 0.000000
0.000312 1.000000 0.000000
0.000785 1.000000 0.000000
0.001603 1.000000 0.000000
0.002972 1.000000 0.000000
0.005274 1.000000 0.000000
0.009193 1.000000 0.000000
0.015848 1.000000 0.000000
0.027047 1.000000 0.000000
0.045120 1.000000 0.000000
0.072662 1.000000 0.000000
0.112353 1.000000 0.000000
0.166585 1.000000 0.000000
0.237044 1.000000 0.000000
0.324327 1.000000 0.000000
0.427666 1.000000 0.000000
0.544829 1.000000 0.000000
