Assets/HDRP/Frame.CUBE
#Created by: Adobe Photoshop Export Color Lookup Plugin
TITLE "Frame1.psd"
#LUT size
LUT_3D_SIZE 5
#data domain
#LUT data points
DOMAIN_MIN 0.000000 0.000000 0.000000
DOMAIN_MAX 0.903226 0.903226 0.903226
0.000000 0.000000 0.000000
0.009193 0.000000 0.000000
0.237044 0.000000 0.000000
1.000000 0.000000 0.000000
1.000000 0.000000 0.000000
0.000000 0.015662 0.000000
0.009193 0.015662 0.000000
0.237044 0.015662 0.000000
1.000000 0.015662 0.000000
1.000000 0.015662 0.000000
0.000000 0.261953 0.000000
0.009193 0.261953 0.000000
0.237044 0.261953 0.000000
1.000000 0.261953 0.000000
1.000000 0.261953 0.000000
0.000000 1.000000 0.000000
0.009193 1.000000 0.000000
0.237044 1.000000 0.000000
1.000000 1.000000 0.000000
1.000000 1.000000 0.000000
0.000000 1.000000 0.000000
0.009193 1.000000 0.000000
0.237044 1.000000 0.000000
1.000000 1.000000 0.000000
1.000000 1.000000 0.000000
0.000000 0.000000 0.017842
0.009193 0.000000 0.017842
0.237044 0.000000 0.017842
1.000000 0.000000 0.017842
1.000000 0.000000 0.017842
0.000000 0.015662 0.017842
0.009193 0.015662 0.017842
0.237044 0.015662 0.017842
1.000000 0.015662 0.017842
1.000000 0.015662 0.017842
0.000000 0.261953 0.017842
0.009193 0.261953 0.017842
0.237044 0.261953 0.017842
1.000000 0.261953 0.017842
1.000000 0.261953 0.017842
0.000000 1.000000 0.017842
0.009193 1.000000 0.017842
0.237044 1.000000 0.017842
1.000000 1.000000 0.017842
1.000000 1.000000 0.017842
0.000000 1.000000 0.017842
0.009193 1.000000 0.017842
0.237044 1.000000 0.017842
1.000000 1.000000 0.017842
1.000000 1.000000 0.017842
0.000000 0.000000 0.203487
0.009193 0.000000 0.203487
0.237044 0.000000 0.203487
1.000000 0.000000 0.203487
1.000000 0.000000 0.203487
0.000000 0.015662 0.203487
0.009193 0.015662 0.203487
0.237044 0.015662 0.203487
1.000000 0.015662 0.203487
1.000000 0.015662 0.203487
0.000000 0.261953 0.203487
0.009193 0.261953 0.203487
0.237044 0.261953 0.203487
1.000000 0.261953 0.203487
1.000000 0.261953 0.203487
0.000000 1.000000 0.203487
0.009193 1.000000 0.203487
0.237044 1.000000 0.203487
1.000000 1.000000 0.203487
1.000000 1.000000 0.203487
0.000000 1.000000 0.203487
0.009193 1.000000 0.203487
0.237044 1.000000 0.203487
1.000000 1.000000 0.203487
1.000000 1.000000 0.203487
0.000000 0.000000 0.820013
0.009193 0.000000 0.820013
0.237044 0.000000 0.820013
1.000000 0.000000 0.820013
1.000000 0.000000 0.820013
0.000000 0.015662 0.820013
0.009193 0.015662 0.820013
0.237044 0.015662 0.820013
1.000000 0.015662 0.820013
1.000000 0.015662 0.820013
0.000000 0.261953 0.820013
0.009193 0.261953 0.820013
0.237044 0.261953 0.820013
1.000000 0.261953 0.820013
1.000000 0.261953 0.820013
0.000000 1.000000 0.820013
0.009193 1.000000 0.820013
0.237044 1.000000 0.820013
1.000000 1.000000 0.820013
1.000000 1.000000 0.820013
0.000000 1.000000 0.820013
0.009193 1.000000 0.820013
0.237044 1.000000 0.820013
1.000000 1.000000 0.820013
1.000000 1.000000 0.820013
0.000000 0.000000 1.000000
0.009193 0.000000 1.000000
0.237044 0.000000 1.000000
1.000000 0.000000 1.000000
1.000000 0.000000 1.000000
0.000000 0.015662 1.000000
0.009193 0.015662 1.000000
0.237044 0.015662 1.000000
1.000000 0.015662 1.000000
1.000000 0.015662 1.000000
0.000000 0.261953 1.000000
0.009193 0.261953 1.000000
0.237044 0.261953 1.000000
1.000000 0.261953 1.000000
1.000000 0.261953 1.000000
0.000000 1.000000 1.000000
0.009193 1.000000 1.000000
0.237044 1.000000 1.000000
1.000000 1.000000 1.000000
1.000000 1.000000 1.000000
0.000000 1.000000 1.000000
0.009193 1.000000 1.000000
0.237044 1.000000 1.000000
1.000000 1.000000 1.000000
1.000000 1.000000 1.000000
