Assets/HDRP/Lut.CUBE
#Created by: Adobe Photoshop Export Color Lookup Plugin
TITLE "Lut.psd"
#LUT size
LUT_3D_SIZE 8
#data domain
#LUT data points
DOMAIN_MIN 0.000000 0.000000 0.000000
DOMAIN_MAX 0.903226 0.903226 0.903226
0.000000 0.000000 0.000000
0.000000 0.000000 0.000000
0.006077 0.000000 0.000105
0.066188 0.000418 0.000453
0.239177 0.006031 0.002891
0.565003 0.008235 0.008235
0.807793 0.020930 0.020930
0.900993 0.061052 0.061052
0.000000 0.000071 0.000000
0.000438 0.000000 0.000008
0.006654 0.000000 0.000115
0.066188 0.002806 0.000453
0.239935 0.009225 0.002891
0.566233 0.011423 0.008235
0.812774 0.034834 0.020930
0.906309 0.074818 0.061052
0.000000 0.007211 0.000000
0.000401 0.007457 0.000007
0.008420 0.005885 0.000145
0.073266 0.006701 0.000481
0.240688 0.015324 0.002891
0.573366 0.028906 0.008235
0.822104 0.060891 0.020930
0.919144 0.096035 0.061052
0.000000 0.080755 0.000857
0.000069 0.080757 0.000857
0.008095 0.083790 0.000922
0.097163 0.065352 0.000995
0.294111 0.058053 0.000000
0.609378 0.086260 0.006157
0.857407 0.132236 0.020930
0.959222 0.209425 0.061052
0.000000 0.260137 0.002931
0.000069 0.260142 0.002931
0.007087 0.260635 0.002931
0.100292 0.297818 0.001153
0.405333 0.260337 0.000000
0.717394 0.184731 0.000000
0.923651 0.270293 0.005001
0.996370 0.417824 0.046020
0.000000 0.528996 0.000000
0.000069 0.529014 0.000000
0.007087 0.530681 0.000000
0.080028 0.555035 0.000000
0.568139 0.716602 0.000000
0.865991 0.636785 0.000000
1.000000 0.549727 0.000000
1.000000 0.598287 0.000742
0.000000 0.750227 0.000000
0.000069 0.750265 0.000000
0.007087 0.754082 0.000000
0.078128 0.791004 0.000000
0.483917 0.900613 0.000000
0.957495 0.973393 0.000000
1.000000 0.891953 0.000000
1.000000 0.823133 0.000000
0.000000 0.774365 0.000000
0.000069 0.774403 0.000000
0.007087 0.778219 0.000000
0.078128 0.815130 0.000000
0.411999 0.900451 0.000000
0.912451 0.966916 0.000000
1.000000 0.976318 0.000000
1.000000 0.976318 0.000000
0.000000 0.000000 0.000071
0.000071 0.000000 0.000071
0.006343 0.000000 0.000399
0.066188 0.000418 0.002841
0.239502 0.006031 0.005977
0.565394 0.008235 0.011423
0.809166 0.020930 0.034834
0.902433 0.061052 0.074818
0.000000 0.000071 0.000071
0.000071 0.000071 0.000072
0.006473 0.000725 0.000837
0.067990 0.003203 0.003231
0.242876 0.009636 0.006366
0.568802 0.011822 0.011822
0.816222 0.036571 0.036571
0.908904 0.076235 0.076235
0.000000 0.007211 0.000071
0.000071 0.007211 0.000072
0.007996 0.006348 0.000138
0.069812 0.008341 0.002852
0.243635 0.015745 0.006366
0.576494 0.030637 0.011822
0.825559 0.062647 0.036571
0.921745 0.097463 0.076235
0.000000 0.080757 0.000928
0.000069 0.080758 0.000928
0.007146 0.081112 0.000887
0.095261 0.067430 0.001028
0.290556 0.064247 0.000992
0.610938 0.092229 0.010599
0.861517 0.135574 0.036571
0.962113 0.213510 0.076235
0.000000 0.260143 0.003004
0.000069 0.260148 0.003004
0.007087 0.260641 0.003004
0.095195 0.292001 0.001397
0.402548 0.263589 0.000000
0.716118 0.192678 0.000000
0.925698 0.285778 0.009955
0.998397 0.435313 0.065270
0.000000 0.529004 0.000069
0.000069 0.529021 0.000069
0.007087 0.530688 0.000069
0.078128 0.552146 0.000069
0.552318 0.711531 0.000000
0.864964 0.639278 0.000000
1.000000 0.556454 0.000000
1.000000 0.608663 0.005438
0.000000 0.750239 0.000069
0.000069 0.750277 0.000069
0.007087 0.754094 0.000069
0.078128 0.791016 0.000069
0.472609 0.897286 0.000000
0.952883 0.973036 0.000000
1.000000 0.893254 0.000000
1.000000 0.825949 0.000000
0.000000 0.774377 0.000069
0.000069 0.774415 0.000069
0.007087 0.778231 0.000069
0.078128 0.815142 0.000069
0.411991 0.900468 0.000069
0.907923 0.966412 0.000000
1.000000 0.976318 0.000000
1.000000 0.976318 0.000000
0.000000 0.000000 0.007211
0.000071 0.000000 0.007211
0.007211 0.000000 0.007211
0.069431 0.000444 0.008488
0.239825 0.006130 0.011868
0.567304 0.008235 0.028906
0.811739 0.020930 0.060891
0.904934 0.061052 0.096035
0.000000 0.000071 0.007211
0.000071 0.000071 0.007213
0.007211 0.000071 0.007213
0.068506 0.003097 0.009053
0.243201 0.009735 0.012268
0.570848 0.011822 0.030637
0.818797 0.036571 0.062647
0.911406 0.076235 0.097462
0.000000 0.007211 0.007211
0.000071 0.007211 0.007213
0.007211 0.007211 0.007336
0.071338 0.009853 0.009867
0.248928 0.016626 0.013110
0.583956 0.033855 0.033855
0.832053 0.065910 0.065910
0.926409 0.100114 0.100114
0.000000 0.080780 0.008069
0.000069 0.080782 0.008069
0.007087 0.080905 0.008168
0.091801 0.071358 0.006087
0.283131 0.077008 0.009727
0.618155 0.102667 0.033339
0.869144 0.141774 0.065910
0.966468 0.224909 0.100114
0.000000 0.260759 0.010391
0.000069 0.260764 0.010391
0.007087 0.261256 0.010391
0.086610 0.282641 0.007544
0.397549 0.269795 0.001061
0.716241 0.208649 0.005328
0.933097 0.314944 0.033645
1.000000 0.466160 0.094224
0.000000 0.529866 0.007087
0.000069 0.529883 0.007087
0.007087 0.531472 0.007087
0.078128 0.553076 0.007087
0.524127 0.703193 0.000667
0.863058 0.643909 0.000000
1.000000 0.568525 0.000000
1.000000 0.629849 0.017467
0.000000 0.751471 0.007087
0.000069 0.751508 0.007087
0.007087 0.755325 0.007087
0.078128 0.792322 0.007087
0.452443 0.891793 0.004223
0.944575 0.972088 0.000000
1.000000 0.895669 0.000000
1.000000 0.831225 0.000000
0.000000 0.775608 0.007087
0.000069 0.775646 0.007087
0.007087 0.779463 0.007087
0.078128 0.816373 0.007087
0.411252 0.902191 0.007087
0.899678 0.965493 0.000000
1.000000 0.976318 0.000000
1.000000 0.976318 0.000000
0.000000 0.000244 0.080686
0.000069 0.000244 0.080687
0.007087 0.000244 0.080810
0.080861 0.000832 0.081593
0.264598 0.003732 0.081455
0.577960 0.007504 0.098205
0.818622 0.020930 0.129548
0.911484 0.061052 0.188452
0.000000 0.000315 0.080688
0.000069 0.000315 0.080690
0.007087 0.000315 0.080813
0.080864 0.000904 0.081596
0.263782 0.007693 0.082743
0.578307 0.011795 0.100843
0.825776 0.036571 0.132096
0.918049 0.076311 0.191828
0.000000 0.007455 0.080835
0.000069 0.007455 0.080837
0.007087 0.007455 0.080960
0.080936 0.008069 0.081743
0.263020 0.015736 0.085696
0.591387 0.033855 0.103549
0.839167 0.065910 0.136828
0.933125 0.100803 0.202475
0.000000 0.081468 0.082975
0.000069 0.081471 0.082976
0.007087 0.081618 0.083099
0.081529 0.083663 0.083982
0.286306 0.111708 0.100805
0.642707 0.112019 0.111456
0.888361 0.167096 0.157227
0.977425 0.258497 0.230277
0.000000 0.266458 0.090013
0.000069 0.266463 0.090014
0.007087 0.266955 0.090038
0.078128 0.276760 0.090192
0.386517 0.293626 0.061634
0.726232 0.282393 0.087210
0.955554 0.417458 0.143021
1.000000 0.530312 0.206365
0.000000 0.539159 0.082397
0.000069 0.539177 0.082393
0.007087 0.540892 0.082322
0.078128 0.563340 0.080275
0.437774 0.685353 0.065437
0.862402 0.665198 0.036096
1.000000 0.618695 0.056029
1.000000 0.699787 0.119798
0.000000 0.762451 0.135269
0.000069 0.762489 0.135273
0.007087 0.766405 0.134748
0.078128 0.804279 0.127554
0.400011 0.895577 0.087260
0.920721 0.976095 0.030729
1.000000 0.905533 0.011282
1.000000 0.850025 0.012290
0.000000 0.786589 0.135269
0.000069 0.786626 0.135273
0.007087 0.790542 0.134748
0.078128 0.828405 0.127554
0.400011 0.919714 0.087260
0.879626 0.975361 0.052164
1.000000 0.977948 0.007147
1.000000 0.976728 0.001799
0.000000 0.000000 0.269640
0.000069 0.000000 0.269642
0.007087 0.000000 0.269888
0.079109 0.000001 0.273844
0.294205 0.000013 0.288378
0.621412 0.000420 0.285135
0.835456 0.010770 0.323833
0.917549 0.058540 0.402324
0.000000 0.000069 0.269648
0.000069 0.000069 0.269651
0.007087 0.000069 0.269897
0.079117 0.000071 0.273852
0.294223 0.000083 0.288388
0.622334 0.004280 0.286544
0.837977 0.018320 0.328324
0.925463 0.076326 0.411466
0.000000 0.007087 0.270510
0.000069 0.007087 0.270512
0.007087 0.007087 0.270759
0.079259 0.007088 0.274714
0.296070 0.007100 0.289373
0.623497 0.011996 0.289439
0.850495 0.052633 0.342242
0.940798 0.101098 0.425476
0.000000 0.079634 0.281612
0.000069 0.079636 0.281615
0.007087 0.079783 0.281861
0.078802 0.082717 0.286428
0.314410 0.088621 0.301998
0.661493 0.099699 0.316694
0.897033 0.172380 0.391452
0.983587 0.271135 0.467092
0.000000 0.282044 0.319321
0.000069 0.282049 0.319325
0.007087 0.282541 0.319694
0.078128 0.292127 0.325402
0.349909 0.348013 0.342438
0.747210 0.414739 0.386947
0.977451 0.504054 0.454168
1.000000 0.586516 0.527145
0.000000 0.564109 0.353688
0.000069 0.564127 0.353694
0.007087 0.565839 0.354265
0.078128 0.588469 0.360069
0.318600 0.703797 0.367989
0.855552 0.733273 0.261531
1.000000 0.733967 0.369223
1.000000 0.814317 0.520985
0.000000 0.783354 0.405335
0.000069 0.783392 0.405347
0.007087 0.787257 0.406578
0.078128 0.824733 0.417338
0.347110 0.927010 0.428704
0.868753 0.990333 0.375771
1.000000 0.955444 0.298983
1.000000 0.919186 0.314719
0.000000 0.807284 0.405335
0.000069 0.807323 0.405347
0.007087 0.811263 0.406578
0.078128 0.848869 0.417338
0.347110 0.951134 0.428704
0.829924 1.000000 0.422031
1.000000 1.000000 0.271153
1.000000 1.000000 0.164135
0.000000 0.000000 0.534574
0.000069 0.000000 0.534577
0.007087 0.000000 0.534823
0.078128 0.000000 0.540899
0.288582 0.000000 0.570475
0.646828 0.000000 0.590694
0.866580 0.000001 0.594132
0.906518 0.013317 0.612706
0.000000 0.000069 0.534594
0.000069 0.000069 0.534598
0.007087 0.000069 0.534844
0.078128 0.000069 0.540921
0.288608 0.000069 0.570501
0.646861 0.000069 0.590719
0.867580 0.003957 0.595514
0.913233 0.028085 0.619451
0.000000 0.007087 0.536479
0.000069 0.007087 0.536482
0.007087 0.007087 0.536852
0.078128 0.007087 0.543002
0.291058 0.007087 0.572951
0.650188 0.007087 0.593091
0.869678 0.011740 0.598185
0.928909 0.062920 0.635160
0.000000 0.078153 0.557371
0.000069 0.078153 0.557376
0.007087 0.078153 0.557823
0.078153 0.079501 0.565101
0.315497 0.080700 0.598393
0.684249 0.078128 0.618375
0.909888 0.099111 0.634473
0.978209 0.203416 0.683660
0.000000 0.291360 0.616569
0.000069 0.291365 0.616575
0.007087 0.291857 0.617190
0.078128 0.301677 0.626707
0.333082 0.365648 0.665793
0.764324 0.375609 0.686268
0.980296 0.469135 0.707770
1.000000 0.588333 0.761792
0.000000 0.583693 0.663880
0.000069 0.583711 0.663889
0.007087 0.585468 0.664834
0.078128 0.607702 0.676412
0.204886 0.728153 0.713918
0.818001 0.796455 0.733835
1.000000 0.833158 0.768204
1.000000 0.865462 0.802858
0.000000 0.798488 0.683154
0.000069 0.798525 0.683169
0.007087 0.802293 0.684815
0.078128 0.839151 0.700699
0.251048 0.948075 0.730862
0.816536 1.000000 0.748807
1.000000 0.989922 0.717441
1.000000 0.984126 0.758629
0.000000 0.822614 0.683154
0.000069 0.822651 0.683169
0.007087 0.826389 0.684815
0.078128 0.863259 0.700699
0.251048 0.972213 0.730862
0.816536 1.000000 0.748807
1.000000 1.000000 0.721179
1.000000 1.000000 0.671741
0.000000 0.000000 0.770491
0.000069 0.000000 0.770497
0.007087 0.000000 0.771113
0.078128 0.000000 0.779878
0.321704 0.000000 0.815354
0.689923 0.000000 0.840088
0.919462 0.000000 0.850304
0.943587 0.000000 0.847793
0.000000 0.000069 0.770514
0.000069 0.000069 0.770520
0.007087 0.000069 0.771136
0.078144 0.000069 0.779904
0.321737 0.000069 0.815381
0.689957 0.000069 0.840114
0.919497 0.000069 0.850331
0.945190 0.003150 0.848602
0.000000 0.007087 0.772858
0.000069 0.007087 0.772864
0.007087 0.007087 0.773555
0.078453 0.007087 0.782414
0.325061 0.007087 0.818164
0.693449 0.007087 0.842868
0.923068 0.007087 0.852965
0.948890 0.010423 0.851413
0.000000 0.089555 0.794582
0.000069 0.089561 0.794589
0.007087 0.090077 0.795328
0.078128 0.099774 0.805134
0.336614 0.137339 0.843249
0.726097 0.092782 0.868219
0.953678 0.125368 0.877709
0.982939 0.165762 0.879626
0.000000 0.314558 0.837553
0.000069 0.314565 0.837561
0.007087 0.315304 0.838423
0.078128 0.328457 0.849847
0.322358 0.401289 0.891134
0.772914 0.418333 0.916909
0.995229 0.436250 0.922736
1.000000 0.491188 0.927087
0.000000 0.587367 0.876541
0.000069 0.587389 0.876554
0.007087 0.589470 0.877740
0.078128 0.613932 0.890673
0.203906 0.729803 0.930264
0.812605 0.798829 0.956142
1.000000 0.805287 0.958057
1.000000 0.842632 0.961917
0.000000 0.804146 0.889420
0.000069 0.804184 0.889436
0.007087 0.807928 0.891111
0.078128 0.843872 0.906751
0.227202 0.948740 0.937706
0.810652 1.000000 0.960146
1.000000 1.000000 0.962141
1.000000 1.000000 0.984134
0.000000 0.828077 0.889420
0.000069 0.828114 0.889436
0.007087 0.831939 0.891111
0.078128 0.867998 0.906751
0.227202 0.972878 0.937706
0.810652 1.000000 0.960146
1.000000 1.000000 0.962141
1.000000 1.000000 0.938206
0.000000 0.000000 0.794629
0.000069 0.000000 0.794635
0.007087 0.000000 0.795251
0.078129 0.000000 0.803809
0.321703 0.000000 0.839491
0.689923 0.000000 0.864213
0.919462 0.000000 0.874235
0.943587 0.000000 0.874235
0.000000 0.000069 0.794652
0.000069 0.000069 0.794658
0.007087 0.000069 0.795274
0.078144 0.000069 0.803835
0.321736 0.000069 0.839518
0.689957 0.000069 0.864240
0.919497 0.000069 0.874262
0.943623 0.000069 0.874262
0.000000 0.007087 0.796991
0.000069 0.007087 0.796997
0.007087 0.007087 0.797613
0.078453 0.007087 0.806420
0.325060 0.007087 0.842227
0.693449 0.007087 0.866948
0.923068 0.007087 0.876970
0.947193 0.007087 0.876970
0.000000 0.089555 0.818707
0.000069 0.089561 0.818715
0.007087 0.090077 0.819453
0.078128 0.099774 0.829260
0.336614 0.137339 0.867182
0.726097 0.092782 0.892345
0.953679 0.125368 0.901653
0.977816 0.125368 0.901653
0.000000 0.314558 0.861691
0.000069 0.314565 0.861699
0.007087 0.315304 0.862561
0.078128 0.328456 0.873972
0.322358 0.401289 0.915079
0.772914 0.418333 0.940872
0.995229 0.436250 0.946667
1.000000 0.436250 0.946667
0.000000 0.587367 0.900669
0.000069 0.587389 0.900681
0.007087 0.589470 0.901870
0.078128 0.613932 0.914811
0.203906 0.729804 0.954226
0.812605 0.798829 0.980279
1.000000 0.805287 0.982165
1.000000 0.805287 0.982165
0.000000 0.804146 0.913558
0.000069 0.804184 0.913574
0.007087 0.807928 0.915174
0.078128 0.843872 0.930889
0.227202 0.948740 0.961832
0.810652 1.000000 0.984283
1.000000 1.000000 0.986084
1.000000 1.000000 0.986084
0.000000 0.828077 0.913558
0.000069 0.828114 0.913574
0.007087 0.831939 0.915174
0.078128 0.867998 0.930889
0.227202 0.972878 0.961832
0.810652 1.000000 0.984283
1.000000 1.000000 0.986084
1.000000 1.000000 0.986084
