Assets/HDRP/Lut.CUBE
#Created by: Adobe Photoshop Export Color Lookup Plugin
TITLE "Lut.psd"
#LUT size
LUT_3D_SIZE 32
#data domain
DOMAIN_MIN 0.0 0.0 0.0
DOMAIN_MAX 1.0 1.0 1.0
#LUT data points
0.000000 0.000000 0.000000
0.000000 0.000000 0.000000
0.000000 0.000000 0.000000
0.000000 0.000000 0.000000
0.000000 0.000000 0.000000
0.000242 0.000000 0.000004
0.001407 0.000000 0.000024
0.003330 0.000000 0.000057
0.006077 0.000000 0.000105
0.009702 0.000000 0.000167
0.014544 0.000003 0.000246
0.038216 0.000193 0.000341
0.066188 0.000418 0.000453
0.096904 0.001024 0.000549
0.131272 0.002433 0.001216
0.179363 0.004416 0.001964
0.239177 0.006031 0.002891
0.312822 0.006293 0.004046
0.398383 0.005321 0.005321
0.484805 0.006717 0.006717
0.565003 0.008235 0.008235
0.634834 0.009876 0.009876
0.696490 0.011644 0.011644
0.752528 0.013538 0.013538
0.807793 0.020930 0.020930
0.860563 0.030112 0.030112
0.891046 0.039855 0.039855
0.895885 0.050166 0.050166
0.900993 0.061052 0.061052
0.906374 0.072518 0.072518
0.913376 0.082336 0.082336
0.920815 0.092483 0.092483
0.000000 0.000000 0.000000
0.000000 0.000000 0.000000
0.000000 0.000000 0.000000
0.000036 0.000000 0.000001
0.000122 0.000000 0.000002
0.000606 0.000000 0.000010
0.001675 0.000000 0.000029
0.003425 0.000000 0.000059
0.006077 0.000000 0.000105
0.009702 0.000000 0.000167
0.014544 0.000003 0.000246
0.038216 0.000507 0.000341
0.066188 0.001355 0.000453
0.096983 0.002543 0.000575
0.131353 0.004000 0.001243
0.179555 0.006040 0.001964
0.239568 0.007677 0.002891
0.313218 0.007956 0.004046
0.398895 0.006944 0.005321
0.485408 0.008353 0.006717
0.565639 0.009883 0.008235
0.635474 0.011536 0.009876
0.697106 0.013314 0.011644
0.754634 0.019466 0.013538
0.810372 0.028130 0.020930
0.863182 0.037347 0.030112
0.893650 0.047124 0.039855
0.898500 0.057468 0.050166
0.903620 0.068384 0.061052
0.909853 0.078572 0.072518
0.916964 0.088266 0.082336
0.924415 0.098434 0.092483
0.000000 0.000000 0.000000
0.000000 0.000000 0.000000
0.000000 0.000000 0.000000
0.000314 0.000000 0.000005
0.000438 0.000000 0.000008
0.001045 0.000000 0.000018
0.002132 0.000000 0.000037
0.003896 0.000000 0.000067
0.006388 0.000000 0.000110
0.009793 0.000096 0.000169
0.014544 0.000698 0.000246
0.038216 0.001432 0.000341
0.066188 0.002303 0.000453
0.097032 0.003509 0.000592
0.131404 0.004978 0.001259
0.179675 0.007047 0.001964
0.239809 0.008693 0.002891
0.313461 0.008981 0.004046
0.399210 0.007942 0.005321
0.485778 0.009358 0.006717
0.566029 0.010895 0.008235
0.635867 0.012554 0.009876
0.697999 0.015710 0.011644
0.756214 0.023851 0.013538
0.811951 0.032536 0.020930
0.864785 0.041774 0.030112
0.895243 0.051571 0.039855
0.900100 0.061932 0.050166
0.905225 0.072866 0.061052
0.912038 0.082182 0.072518
0.919156 0.091890 0.082336
0.926615 0.102071 0.092483
0.000000 0.000000 0.000000
0.000000 0.000163 0.000000
0.000314 0.000127 0.000005
0.000314 0.000000 0.000005
0.000438 0.000000 0.000008
0.001110 0.000000 0.000019
0.002329 0.000000 0.000040
0.004106 0.000000 0.000071
0.006605 0.000000 0.000114
0.009892 0.000304 0.000171
0.014655 0.001046 0.000246
0.038216 0.001831 0.000341
0.066188 0.002709 0.000453
0.097054 0.003920 0.000599
0.131426 0.005393 0.001267
0.179725 0.007473 0.001964
0.239911 0.009123 0.002891
0.313564 0.009414 0.004046
0.399343 0.008363 0.005321
0.485934 0.009782 0.006717
0.566194 0.011321 0.008235
0.636033 0.012983 0.009876
0.698687 0.017548 0.011644
0.756890 0.025698 0.013538
0.812616 0.034393 0.020930
0.865460 0.043638 0.030112
0.895913 0.053443 0.039855
0.900773 0.063812 0.050166
0.906091 0.074458 0.061052
0.912957 0.083702 0.072518
0.920078 0.093415 0.082336
0.927541 0.103601 0.092483
0.000000 0.000071 0.000000
0.000000 0.000271 0.000000
0.000438 0.000358 0.000008
0.000438 0.000000 0.000008
0.000438 0.000000 0.000008
0.001110 0.000000 0.000019
0.002379 0.000000 0.000041
0.004139 0.000000 0.000071
0.006654 0.000000 0.000115
0.009946 0.000340 0.000171
0.014719 0.001102 0.000246
0.038216 0.001927 0.000341
0.066188 0.002806 0.000453
0.097059 0.004018 0.000601
0.131431 0.005492 0.001268
0.179738 0.007574 0.001964
0.239935 0.009225 0.002891
0.313589 0.009517 0.004046
0.399375 0.008464 0.005321
0.485972 0.009883 0.006717
0.566233 0.011423 0.008235
0.636072 0.013085 0.009876
0.698851 0.017986 0.011644
0.757052 0.026138 0.013538
0.812774 0.034834 0.020930
0.865620 0.044082 0.030112
0.896073 0.053888 0.039855
0.900933 0.064259 0.050166
0.906309 0.074818 0.061052
0.913176 0.084064 0.072518
0.920298 0.093778 0.082336
0.927761 0.103965 0.092483
0.000000 0.000657 0.000000
0.000000 0.000839 0.000000
0.000514 0.001084 0.000009
0.001110 0.001038 0.000019
0.001110 0.000897 0.000019
0.001110 0.000174 0.000019
0.002591 0.000000 0.000045
0.004401 0.000000 0.000076
0.006899 0.000024 0.000119
0.010201 0.000572 0.000176
0.015247 0.001379 0.000249
0.038216 0.002433 0.000341
0.066188 0.003317 0.000453
0.097085 0.004534 0.000610
0.131458 0.006014 0.001277
0.179801 0.008109 0.001964
0.240029 0.009764 0.002891
0.313717 0.010060 0.004046
0.399542 0.008991 0.005321
0.486167 0.010414 0.006717
0.566439 0.011957 0.008235
0.636279 0.013621 0.009876
0.699713 0.020286 0.011644
0.757899 0.028450 0.013538
0.813606 0.037156 0.020930
0.866465 0.046414 0.030112
0.896912 0.056230 0.039855
0.901775 0.066611 0.050166
0.907455 0.076712 0.061052
0.914326 0.085965 0.072518
0.921452 0.095685 0.082336
0.928919 0.105879 0.092483
0.000000 0.001978 0.000000
0.000000 0.002095 0.000000
0.000192 0.002347 0.000003
0.000987 0.002454 0.000017
0.001189 0.002481 0.000021
0.002241 0.002591 0.000039
0.002591 0.001310 0.000045
0.004935 0.000696 0.000085
0.007441 0.000747 0.000128
0.010767 0.001155 0.000186
0.017357 0.001923 0.000257
0.039177 0.003101 0.000345
0.066188 0.004418 0.000453
0.097143 0.005644 0.000629
0.131516 0.007132 0.001297
0.179937 0.009255 0.001964
0.240166 0.010918 0.002891
0.313993 0.011221 0.004046
0.399898 0.010119 0.005321
0.486585 0.011548 0.006717
0.566879 0.013097 0.008235
0.637797 0.017546 0.009876
0.701551 0.025196 0.011644
0.759706 0.033382 0.013538
0.815380 0.042110 0.020930
0.868266 0.051389 0.030112
0.898700 0.061224 0.039855
0.903571 0.071624 0.050166
0.909898 0.080750 0.061052
0.916777 0.090017 0.072518
0.923911 0.099751 0.082336
0.931386 0.109959 0.092483
0.000000 0.004137 0.000000
0.000000 0.004137 0.000000
0.000000 0.004405 0.000000
0.000580 0.004519 0.000010
0.000753 0.004537 0.000013
0.001730 0.004679 0.000030
0.004075 0.004969 0.000070
0.004999 0.003194 0.000086
0.008303 0.002314 0.000143
0.011629 0.002378 0.000201
0.021058 0.002943 0.000272
0.042791 0.003978 0.000359
0.067981 0.005421 0.000460
0.097789 0.007141 0.000522
0.131608 0.008916 0.001327
0.180153 0.011080 0.001964
0.240384 0.012753 0.002891
0.314431 0.013066 0.004046
0.400464 0.011911 0.005321
0.487248 0.013349 0.006717
0.568933 0.018136 0.008235
0.640793 0.025294 0.009876
0.704464 0.032978 0.011644
0.762569 0.041196 0.013538
0.818190 0.049956 0.020930
0.871117 0.059264 0.030112
0.901532 0.069129 0.039855
0.907214 0.078313 0.050166
0.913763 0.087139 0.061052
0.920655 0.096427 0.072518
0.927802 0.106183 0.082336
0.935289 0.116410 0.092483
0.000000 0.007211 0.000000
0.000000 0.007211 0.000000
0.000000 0.007323 0.000000
0.000248 0.007435 0.000004
0.000401 0.007457 0.000007
0.001261 0.007603 0.000022
0.003311 0.007904 0.000057
0.007066 0.008375 0.000122
0.008420 0.005885 0.000145
0.012845 0.004661 0.000221
0.026436 0.004781 0.000293
0.048115 0.005498 0.000380
0.073266 0.006701 0.000481
0.101319 0.008491 0.000488
0.133759 0.010653 0.000985
0.180783 0.013476 0.001906
0.240688 0.015324 0.002891
0.315043 0.015647 0.004046
0.401938 0.016046 0.005321
0.490877 0.022222 0.006717
0.573366 0.028906 0.008235
0.644975 0.036106 0.009876
0.708528 0.043832 0.011644
0.766561 0.052091 0.013538
0.822104 0.060891 0.020930
0.875090 0.070238 0.030112
0.906352 0.078782 0.039855
0.912578 0.087180 0.050166
0.919144 0.096035 0.061052
0.926053 0.105351 0.072518
0.933217 0.115134 0.082336
0.940884 0.132296 0.092483
0.000000 0.011262 0.000000
0.000000 0.011262 0.000000
0.000000 0.011262 0.000000
0.000000 0.011269 0.000000
0.000117 0.011303 0.000002
0.000889 0.011446 0.000015
0.002731 0.011754 0.000047
0.006049 0.012244 0.000104
0.011405 0.012907 0.000197
0.012924 0.009437 0.000223
0.033094 0.007956 0.000320
0.054814 0.008048 0.000407
0.080245 0.008839 0.000488
0.107885 0.010350 0.000488
0.141126 0.012432 0.000366
0.185344 0.015342 0.001126
0.243965 0.018986 0.002497
0.318717 0.026878 0.004046
0.407273 0.030018 0.005321
0.496481 0.036181 0.006717
0.579133 0.042913 0.008235
0.650555 0.050162 0.009876
0.713808 0.057935 0.011644
0.771746 0.066241 0.013538
0.827418 0.074725 0.020930
0.881621 0.082263 0.030112
0.913288 0.090246 0.039855
0.919534 0.098679 0.050166
0.926121 0.107568 0.061052
0.933051 0.116918 0.072518
0.940446 0.135706 0.082336
0.948341 0.161763 0.092483
0.000000 0.023567 0.000113
0.000000 0.023567 0.000113
0.000000 0.023567 0.000113
0.000000 0.023567 0.000113
0.000069 0.023568 0.000113
0.000646 0.023578 0.000113
0.002235 0.024557 0.000124
0.005233 0.026714 0.000191
0.009992 0.029670 0.000297
0.026576 0.033396 0.000496
0.033094 0.014047 0.000320
0.062459 0.012299 0.000438
0.088300 0.012253 0.000488
0.116156 0.013224 0.000488
0.151304 0.015037 0.000337
0.195874 0.019232 0.000058
0.255875 0.028308 0.001077
0.328893 0.036162 0.003113
0.415584 0.043061 0.004773
0.503325 0.053508 0.006717
0.586299 0.060321 0.008235
0.657692 0.067620 0.009876
0.720642 0.075012 0.011644
0.779146 0.081718 0.013538
0.835711 0.088857 0.020930
0.889913 0.096435 0.030112
0.921618 0.104457 0.039855
0.927884 0.112929 0.050166
0.934569 0.123141 0.061052
0.942289 0.144898 0.072518
0.949884 0.169690 0.082336
0.957806 0.195802 0.092483
0.000000 0.050105 0.000431
0.000000 0.050105 0.000431
0.000000 0.050105 0.000431
0.000000 0.050105 0.000431
0.000069 0.050106 0.000431
0.000646 0.050116 0.000431
0.001944 0.050139 0.000431
0.004596 0.052029 0.000453
0.008887 0.054941 0.000487
0.019572 0.058941 0.000645
0.056626 0.063357 0.000972
0.062548 0.036878 0.000704
0.096480 0.027279 0.000585
0.126305 0.024432 0.000558
0.165123 0.027395 0.000312
0.211179 0.033212 0.000044
0.272691 0.040692 0.000000
0.348227 0.045744 0.001034
0.429535 0.054192 0.003368
0.514337 0.064993 0.005658
0.595733 0.075636 0.007677
0.666920 0.085543 0.009876
0.730086 0.091912 0.011644
0.788613 0.098660 0.013538
0.845530 0.105841 0.020930
0.899776 0.113461 0.030112
0.931558 0.122372 0.039855
0.938549 0.142104 0.050166
0.945917 0.162889 0.061052
0.953665 0.184741 0.072518
0.961286 0.209628 0.082336
0.969221 0.235860 0.092483
0.000000 0.080755 0.000857
0.000000 0.080755 0.000857
0.000000 0.080755 0.000857
0.000000 0.080755 0.000857
0.000069 0.080757 0.000857
0.000646 0.080767 0.000857
0.001944 0.080790 0.000857
0.004115 0.080857 0.000858
0.008095 0.083790 0.000922
0.013889 0.087308 0.000999
0.048914 0.092607 0.001304
0.093394 0.098107 0.001506
0.097163 0.065352 0.000995
0.136155 0.054409 0.000773
0.182057 0.050698 0.000304
0.232090 0.053053 0.000069
0.294111 0.058053 0.000000
0.371160 0.059653 0.000000
0.451522 0.066966 0.001006
0.533641 0.076274 0.003360
0.609378 0.086260 0.006157
0.677929 0.096415 0.008638
0.740633 0.106961 0.011015
0.799616 0.118350 0.013538
0.857407 0.132236 0.020930
0.912385 0.149995 0.030112
0.944809 0.168785 0.039855
0.951828 0.188591 0.050166
0.959222 0.209425 0.061052
0.966997 0.231356 0.072518
0.973935 0.257840 0.082336
0.981126 0.285589 0.092483
0.000000 0.113011 0.001584
0.000000 0.113011 0.001584
0.000000 0.113011 0.001584
0.000000 0.113011 0.001584
0.000069 0.113012 0.001584
0.000646 0.113022 0.001584
0.001944 0.113045 0.001584
0.004066 0.113082 0.001584
0.007454 0.114160 0.001606
0.012852 0.117842 0.001687
0.041286 0.123482 0.001895
0.085120 0.130973 0.002112
0.137581 0.138941 0.001968
0.138501 0.098042 0.001262
0.195327 0.087784 0.000406
0.256700 0.080914 0.000118
0.321553 0.080737 0.000000
0.400578 0.079250 0.000000
0.480875 0.083655 0.000000
0.559023 0.088702 0.000551
0.630994 0.097365 0.003116
0.694540 0.107503 0.006019
0.753396 0.119258 0.009291
0.811646 0.141281 0.012126
0.870313 0.168217 0.017560
0.927064 0.198011 0.030112
0.959956 0.217925 0.039855
0.966954 0.239399 0.050166
0.974285 0.263395 0.061052
0.981992 0.288615 0.072518
0.988959 0.315209 0.082336
0.996179 0.343068 0.092483
0.000000 0.152291 0.002412
0.000000 0.152291 0.002412
0.000000 0.152291 0.002412
0.000000 0.152291 0.002412
0.000069 0.152293 0.002412
0.000646 0.152313 0.002412
0.001944 0.152359 0.002412
0.004066 0.152433 0.002412
0.007087 0.152507 0.002412
0.011984 0.155732 0.002475
0.035423 0.162318 0.002657
0.075052 0.170789 0.002905
0.129957 0.185572 0.002328
0.208056 0.197535 0.000436
0.201399 0.138948 0.000556
0.278093 0.127787 0.000091
0.358666 0.114874 0.000000
0.436006 0.107289 0.000000
0.514124 0.105502 0.000000
0.589907 0.105273 0.000000
0.655832 0.112444 0.000029
0.714799 0.121707 0.002791
0.771802 0.141615 0.006045
0.828136 0.167435 0.009322
0.883861 0.198954 0.013119
0.939347 0.227258 0.022622
0.971707 0.262858 0.035705
0.983290 0.301784 0.050155
0.991272 0.328265 0.061052
0.997793 0.353423 0.072518
0.998359 0.379302 0.082336
0.998844 0.406407 0.092483
0.000000 0.200143 0.003139
0.000000 0.200143 0.003139
0.000000 0.200143 0.003139
0.000000 0.200143 0.003139
0.000069 0.200148 0.003139
0.000646 0.200188 0.003139
0.001944 0.200279 0.003139
0.004066 0.200354 0.003139
0.007087 0.200460 0.003139
0.011256 0.201245 0.003137
0.030695 0.208985 0.003017
0.067590 0.219395 0.003072
0.111802 0.237522 0.001764
0.205218 0.261026 0.000678
0.303232 0.269316 0.000000
0.290674 0.193554 0.000091
0.384532 0.174676 0.000000
0.476679 0.147501 0.000000
0.552011 0.135763 0.000000
0.621834 0.132816 0.000000
0.683540 0.140191 0.000000
0.739566 0.152407 0.000000
0.794467 0.170636 0.002219
0.848605 0.197026 0.005654
0.902439 0.228462 0.009287
0.954545 0.262597 0.013076
0.981078 0.301741 0.027432
0.991968 0.338338 0.041029
0.996005 0.377316 0.056031
0.998919 0.418358 0.071503
0.999727 0.449505 0.082336
1.000000 0.475820 0.092483
0.000000 0.260137 0.002931
0.000000 0.260137 0.002931
0.000000 0.260137 0.002931
0.000000 0.260137 0.002931
0.000069 0.260142 0.002931
0.000646 0.260183 0.002931
0.001944 0.260274 0.002931
0.004066 0.260422 0.002931
0.007087 0.260635 0.002931
0.011068 0.260914 0.002931
0.026620 0.266171 0.002726
0.061702 0.277467 0.002210
0.100292 0.297818 0.001153
0.176020 0.326448 0.000120
0.319057 0.359090 0.000000
0.425573 0.357598 0.000000
0.405333 0.260337 0.000000
0.508306 0.231855 0.000000
0.597801 0.197441 0.000000
0.661123 0.186195 0.000000
0.717394 0.184731 0.000000
0.769876 0.191746 0.000000
0.820860 0.208597 0.000000
0.872793 0.238978 0.001510
0.923651 0.270293 0.005001
0.974591 0.301706 0.008839
0.989287 0.338419 0.013233
0.992710 0.375498 0.027396
0.996370 0.417824 0.046020
0.999866 0.457807 0.061546
1.000000 0.498128 0.077532
1.000000 0.538976 0.090586
0.000000 0.329673 0.000184
0.000000 0.329673 0.000184
0.000000 0.329673 0.000184
0.000000 0.329673 0.000184
0.000069 0.329679 0.000184
0.000646 0.329729 0.000184
0.001944 0.329843 0.000184
0.004066 0.330029 0.000184
0.007087 0.330294 0.000184
0.011068 0.330644 0.000184
0.023060 0.332345 0.000184
0.056461 0.345000 0.000000
0.093940 0.364348 0.000000
0.150570 0.396169 0.000000
0.287818 0.434730 0.000000
0.468440 0.474082 0.000000
0.563613 0.459517 0.000000
0.537925 0.343423 0.000000
0.633541 0.309010 0.000000
0.707803 0.264549 0.000000
0.756913 0.255400 0.000000
0.804874 0.259644 0.000000
0.851919 0.276063 0.000000
0.900813 0.299499 0.000000
0.948436 0.323538 0.000661
0.989244 0.350470 0.004369
0.992720 0.381049 0.008482
0.996611 0.415614 0.012852
1.000000 0.452768 0.026134
1.000000 0.498617 0.050305
1.000000 0.538282 0.067369
1.000000 0.577093 0.082053
0.000000 0.401501 0.000000
0.000000 0.401501 0.000000
0.000000 0.401501 0.000000
0.000000 0.401501 0.000000
0.000069 0.401509 0.000000
0.000646 0.401580 0.000000
0.001944 0.401739 0.000000
0.004066 0.402000 0.000000
0.007087 0.402371 0.000000
0.011068 0.402860 0.000000
0.023060 0.405077 0.000000
0.051860 0.413995 0.000000
0.088745 0.433991 0.000000
0.132676 0.464328 0.000000
0.240582 0.509032 0.000000
0.438487 0.552384 0.000000
0.629517 0.592656 0.000000
0.694175 0.562870 0.000000
0.667510 0.441361 0.000000
0.744676 0.402033 0.000000
0.799535 0.357915 0.000000
0.843714 0.350648 0.000000
0.888155 0.358371 0.000000
0.932951 0.372581 0.000000
0.973625 0.387856 0.000000
0.995512 0.407869 0.000000
0.998393 0.433628 0.003386
1.000000 0.463172 0.007652
1.000000 0.495373 0.012170
1.000000 0.533320 0.026980
1.000000 0.573449 0.048838
1.000000 0.612929 0.071272
0.000000 0.469603 0.000000
0.000000 0.469603 0.000000
0.000000 0.469603 0.000000
0.000000 0.469603 0.000000
0.000069 0.469617 0.000000
0.000646 0.469728 0.000000
0.001944 0.469969 0.000000
0.004066 0.470341 0.000000
0.007087 0.470871 0.000000
0.011068 0.471570 0.000000
0.023060 0.474511 0.000000
0.048854 0.480772 0.000000
0.084265 0.498239 0.000000
0.123313 0.527230 0.000000
0.188020 0.573441 0.000000
0.407548 0.619705 0.000000
0.599271 0.662400 0.000000
0.758536 0.691097 0.000000
0.801067 0.655523 0.000000
0.779643 0.542583 0.000000
0.837129 0.503298 0.000000
0.886131 0.464128 0.000000
0.927771 0.453990 0.000000
0.967282 0.457248 0.000000
0.995377 0.463774 0.000000
1.000000 0.476553 0.000000
1.000000 0.494080 0.000000
1.000000 0.517433 0.002111
1.000000 0.547001 0.006931
1.000000 0.573575 0.011159
1.000000 0.607089 0.024669
1.000000 0.643580 0.045911
0.000000 0.528996 0.000000
0.000000 0.528996 0.000000
0.000000 0.528996 0.000000
0.000000 0.528996 0.000000
0.000069 0.529014 0.000000
0.000646 0.529166 0.000000
0.001944 0.529507 0.000000
0.004066 0.530066 0.000000
0.007087 0.530681 0.000000
0.011068 0.531449 0.000000
0.023060 0.534860 0.000000
0.048854 0.542413 0.000000
0.080028 0.555035 0.000000
0.117523 0.582715 0.000000
0.163901 0.627366 0.000000
0.378589 0.674133 0.000000
0.568139 0.716602 0.000000
0.738019 0.748184 0.000000
0.852835 0.764450 0.000000
0.880120 0.729654 0.000000
0.865991 0.636785 0.000000
0.918704 0.604864 0.000000
0.965464 0.569508 0.000000
0.996613 0.551417 0.000000
1.000000 0.549727 0.000000
1.000000 0.554695 0.000000
1.000000 0.564846 0.000000
1.000000 0.579210 0.000000
1.000000 0.598287 0.000742
1.000000 0.623205 0.005633
1.000000 0.648002 0.010677
1.000000 0.674070 0.021582
0.000000 0.582756 0.000000
0.000000 0.582756 0.000000
0.000000 0.582756 0.000000
0.000000 0.582756 0.000000
0.000069 0.582777 0.000000
0.000646 0.582960 0.000000
0.001944 0.583369 0.000000
0.004066 0.584040 0.000000
0.007087 0.584994 0.000000
0.011068 0.586141 0.000000
0.023060 0.590126 0.000000
0.048854 0.599253 0.000000
0.078128 0.610001 0.000000
0.112520 0.635308 0.000000
0.164269 0.676369 0.000000
0.347674 0.721909 0.000000
0.541965 0.763856 0.000000
0.710307 0.796347 0.000000
0.838966 0.816636 0.000000
0.924433 0.829275 0.000000
0.942575 0.793970 0.000000
0.937686 0.714901 0.000000
0.984656 0.690540 0.000000
1.000000 0.658328 0.000000
1.000000 0.637601 0.000000
1.000000 0.635538 0.000000
1.000000 0.638297 0.000000
1.000000 0.645462 0.000000
1.000000 0.656543 0.000000
1.000000 0.671269 0.000000
1.000000 0.689550 0.003850
1.000000 0.711139 0.009567
0.000000 0.637642 0.000000
0.000000 0.637642 0.000000
0.000000 0.637642 0.000000
0.000000 0.637642 0.000000
0.000069 0.637676 0.000000
0.000646 0.637959 0.000000
0.001944 0.638489 0.000000
0.004066 0.639308 0.000000
0.007087 0.640474 0.000000
0.011068 0.642010 0.000000
0.023060 0.647097 0.000000
0.048854 0.657710 0.000000
0.078128 0.670705 0.000000
0.108044 0.690110 0.000000
0.178172 0.727853 0.000000
0.332083 0.769910 0.000000
0.522391 0.810846 0.000000
0.687680 0.843811 0.000000
0.821020 0.865445 0.000000
0.916457 0.881478 0.000000
0.977936 0.894170 0.000000
0.988257 0.852926 0.000000
0.988257 0.781459 0.000000
1.000000 0.759286 0.000000
1.000000 0.731081 0.000000
1.000000 0.709502 0.000000
1.000000 0.706611 0.000000
1.000000 0.708176 0.000000
1.000000 0.713377 0.000000
1.000000 0.722019 0.000000
1.000000 0.733559 0.000000
1.000000 0.749598 0.002984
0.000000 0.697917 0.000000
0.000000 0.697917 0.000000
0.000000 0.697917 0.000000
0.000000 0.697917 0.000000
0.000069 0.697956 0.000000
0.000646 0.698280 0.000000
0.001944 0.699008 0.000000
0.004066 0.700200 0.000000
0.007087 0.701896 0.000000
0.011068 0.703926 0.000000
0.023060 0.709989 0.000000
0.048854 0.723140 0.000000
0.078128 0.737515 0.000000
0.106461 0.754544 0.000000
0.189643 0.783308 0.000000
0.335458 0.821177 0.000000
0.506749 0.857623 0.000000
0.667428 0.889903 0.000000
0.799967 0.911203 0.000000
0.899183 0.926556 0.000000
0.971592 0.943423 0.000000
1.000000 0.949446 0.000000
1.000000 0.906369 0.000000
1.000000 0.838851 0.000000
1.000000 0.817640 0.000000
1.000000 0.794093 0.000000
1.000000 0.771829 0.000000
1.000000 0.768441 0.000000
1.000000 0.768896 0.000000
1.000000 0.772812 0.000000
1.000000 0.779764 0.000000
1.000000 0.789533 0.000000
0.000000 0.750227 0.000000
0.000000 0.750227 0.000000
0.000000 0.750227 0.000000
0.000000 0.750227 0.000000
0.000069 0.750265 0.000000
0.000646 0.750579 0.000000
0.001944 0.751285 0.000000
0.004066 0.752438 0.000000
0.007087 0.754082 0.000000
0.011068 0.756247 0.000000
0.023060 0.762460 0.000000
0.048854 0.775625 0.000000
0.078128 0.791004 0.000000
0.106462 0.808000 0.000000
0.175548 0.829717 0.000000
0.317278 0.865134 0.000000
0.483917 0.900613 0.000000
0.644616 0.933261 0.000000
0.779826 0.955463 0.000000
0.884118 0.963759 0.000000
0.957495 0.973393 0.000000
1.000000 0.976318 0.000000
1.000000 0.976318 0.000000
1.000000 0.954683 0.000000
1.000000 0.891953 0.000000
1.000000 0.871806 0.000000
1.000000 0.849481 0.000000
1.000000 0.826659 0.000000
1.000000 0.823133 0.000000
1.000000 0.822969 0.000000
1.000000 0.825604 0.000000
1.000000 0.831200 0.000000
0.000000 0.774365 0.000000
0.000000 0.774365 0.000000
0.000000 0.774365 0.000000
0.000000 0.774365 0.000000
0.000069 0.774403 0.000000
0.000646 0.774716 0.000000
0.001944 0.775422 0.000000
0.004066 0.776576 0.000000
0.007087 0.778219 0.000000
0.011068 0.780384 0.000000
0.023060 0.786598 0.000000
0.048854 0.799757 0.000000
0.078128 0.815130 0.000000
0.106461 0.832133 0.000000
0.172301 0.852905 0.000000
0.297614 0.880120 0.000000
0.463646 0.909715 0.000000
0.622231 0.936256 0.000000
0.761690 0.953719 0.000000
0.869589 0.962358 0.000000
0.944459 0.972069 0.000000
1.000000 0.976318 0.000000
1.000000 0.976318 0.000000
1.000000 0.976318 0.000000
1.000000 0.976318 0.000000
1.000000 0.941180 0.000000
1.000000 0.922920 0.000000
1.000000 0.902247 0.000000
1.000000 0.879441 0.000000
1.000000 0.874248 0.000000
1.000000 0.873414 0.000000
1.000000 0.875630 0.000000
0.000000 0.774365 0.000000
0.000000 0.774365 0.000000
0.000000 0.774365 0.000000
0.000000 0.774365 0.000000
0.000069 0.774403 0.000000
0.000646 0.774716 0.000000
0.001944 0.775422 0.000000
0.004066 0.776576 0.000000
0.007087 0.778219 0.000000
0.011068 0.780384 0.000000
0.023060 0.786598 0.000000
0.048854 0.799757 0.000000
0.078128 0.815130 0.000000
0.106461 0.832133 0.000000
0.172300 0.852905 0.000000
0.280296 0.877042 0.000000
0.444522 0.906284 0.000000
0.601536 0.933046 0.000000
0.745126 0.952068 0.000000
0.853930 0.961388 0.000000
0.933102 0.970176 0.000000
0.993545 0.975934 0.000000
1.000000 0.976318 0.000000
1.000000 0.976318 0.000000
1.000000 0.976318 0.000000
1.000000 0.976318 0.000000
1.000000 0.976318 0.000000
1.000000 0.970499 0.000000
1.000000 0.950856 0.000000
1.000000 0.929782 0.000000
1.000000 0.922764 0.000000
1.000000 0.921490 0.000000
0.000000 0.774365 0.000000
0.000000 0.774365 0.000000
0.000000 0.774365 0.000000
0.000000 0.774365 0.000000
0.000069 0.774403 0.000000
0.000646 0.774716 0.000000
0.001944 0.775422 0.000000
0.004066 0.776576 0.000000
0.007087 0.778219 0.000000
0.011068 0.780384 0.000000
0.023060 0.786598 0.000000
0.048854 0.799757 0.000000
0.078128 0.815130 0.000000
0.106461 0.832133 0.000000
0.172300 0.852905 0.000000
0.279514 0.876903 0.000000
0.426807 0.903106 0.000000
0.582968 0.930165 0.000000
