Assets/HDRP/Lut.CUBE
#Created by: Adobe Photoshop Export Color Lookup Plugin
TITLE "Lut.psd"
#LUT size
LUT_3D_SIZE 5
#data domain
#LUT data points
DOMAIN_MIN 0.000000 0.000000 0.000000
DOMAIN_MAX 0.903226 0.903226 0.903226
0.000000 0.000000 0.000000
0.003330 0.000000 0.000057
0.131272 0.002433 0.001216
0.634834 0.009876 0.009876
0.900993 0.061052 0.061052
0.000000 0.004137 0.000000
0.004999 0.003194 0.000086
0.131608 0.008916 0.001327
0.640793 0.025294 0.009876
0.913763 0.087139 0.061052
0.000000 0.152291 0.002412
0.004066 0.152433 0.002412
0.201399 0.138948 0.000556
0.714799 0.121707 0.002791
0.991272 0.328265 0.061052
0.000000 0.582756 0.000000
0.004066 0.584040 0.000000
0.164269 0.676369 0.000000
0.937686 0.714901 0.000000
1.000000 0.656543 0.000000
0.000000 0.774365 0.000000
0.004066 0.776576 0.000000
0.172301 0.852905 0.000000
0.977196 0.974919 0.000000
1.000000 0.976318 0.000000
0.000000 0.000000 0.004137
0.004137 0.000000 0.004137
0.131384 0.002433 0.007699
0.636500 0.009876 0.025294
0.903886 0.061052 0.087139
0.000000 0.004137 0.004137
0.004137 0.004137 0.004209
0.136211 0.009978 0.008626
0.647771 0.028889 0.028889
0.919068 0.090100 0.090100
0.000000 0.152505 0.006621
0.004066 0.152647 0.006621
0.196177 0.142893 0.000736
0.718065 0.142961 0.012634
0.995690 0.341134 0.090100
0.000000 0.583255 0.004066
0.004066 0.584468 0.004066
0.153817 0.665609 0.002315
0.935480 0.718857 0.000000
1.000000 0.670778 0.004306
0.000000 0.775078 0.004066
0.004066 0.777289 0.004066
0.170660 0.853832 0.004066
0.969289 0.974307 0.000000
1.000000 0.976318 0.000000
0.000000 0.000152 0.155591
0.004066 0.000152 0.155734
0.160146 0.001893 0.160420
0.661624 0.006565 0.165738
0.915157 0.061052 0.289402
0.000000 0.004218 0.155948
0.004066 0.004218 0.156091
0.160574 0.006173 0.160776
0.665567 0.019772 0.172273
0.930606 0.090791 0.303021
0.000000 0.158097 0.171631
0.004066 0.158311 0.171702
0.170232 0.176734 0.177717
0.759338 0.243394 0.228789
1.000000 0.407859 0.369855
0.000000 0.603161 0.206844
0.004066 0.604445 0.207058
0.137038 0.674083 0.195958
0.928989 0.763969 0.103419
1.000000 0.785785 0.173391
0.000000 0.796010 0.260501
0.004066 0.798221 0.261000
0.137039 0.878651 0.266157
0.933430 0.997575 0.116583
1.000000 0.986135 0.041283
0.000000 0.000000 0.593352
0.004066 0.000000 0.593566
0.143103 0.000000 0.612917
0.716439 0.000000 0.656424
0.909199 0.009889 0.667177
0.000000 0.004066 0.594635
0.004066 0.004066 0.594921
0.144601 0.004066 0.614486
0.718365 0.004066 0.657993
0.920745 0.034274 0.678672
0.000000 0.154153 0.643127
0.004066 0.154368 0.643484
0.145851 0.180740 0.668398
0.788579 0.170924 0.714869
0.997698 0.359608 0.764587
0.000000 0.637632 0.726426
0.004066 0.638916 0.727139
0.137038 0.706569 0.756389
0.887201 0.863051 0.802875
1.000000 0.911550 0.851635
0.000000 0.824069 0.737752
0.004066 0.826209 0.738751
0.137039 0.904074 0.768602
0.885894 1.000000 0.808265
1.000000 1.000000 0.753288
0.000000 0.000000 0.794629
0.004066 0.000000 0.794986
0.156689 0.000000 0.818721
0.754071 0.000000 0.866464
0.943587 0.000000 0.874235
0.000000 0.004066 0.795984
0.004066 0.004066 0.796341
0.158758 0.004066 0.820219
0.756068 0.004066 0.868033
0.945656 0.004066 0.875804
0.000000 0.190642 0.836643
0.004066 0.191071 0.837071
0.137039 0.226479 0.864440
0.810313 0.245977 0.914740
0.994363 0.267987 0.921081
0.000000 0.639844 0.903431
0.004066 0.641271 0.904216
0.137039 0.709960 0.934192
0.884888 0.863799 0.983841
1.000000 0.866214 0.983943
0.000000 0.828077 0.913558
0.004066 0.830292 0.914485
0.137039 0.906321 0.943752
0.883250 1.000000 0.985423
1.000000 1.000000 0.986084
